!!!!SEGMENT: pl-cz--iii-666--011_lscigalski-franciszek--missa-in-c-agnus-dei.krn
!!!cenid: 18xx:1094
!!!COM: Ścigalski, Franciszek
!!!COM-rismid: pe30002948
!!!CDT: 1782/01/29-1846/09/27
!!!CNT: Polish
!!!OPR: Missa in C
!!!OTL: Agnus Dei
!!!OMV: 011
!!!PDT:
!!!AGN: Sacred; Mass
!!!SMS-siglum: PL-CZ
!!!SMS-shelfmark: III-666
!!!SMS-shelfwork: 001-011 M
!!!SMS-variant:
!!!SMS-altvar:
!!!NIFC-rismid: 300001312
!!!URL-scan: http://repozytorium.nifc.pl/skany/pl-cz-nut--iii-666
!!!ONB-nifc: UWAGA: części Mszy: Kyrie, Gloria, Qui tollis, Quoniam, Credo, Et incarnatus, Et resurrexit, Sanctus, Pleni sunt, Benedictus, Agnus Dei, Dona nobis. UWAGA: „Amen” częścią „Quoniam”
**kern	**fba	**dynam	**kern	**dynam	**kern	**dynam	**kern	**dynam	**kern	**text	**kern	**text	**kern	**text	**kern	**text	**kern	**kern	**kern	**dynam	**kern	**dynam	**kern	**dynam	**kern	**dynam	**kern	**dynam	**kern	**dynam	**kern	**dynam	**kern	**dynam
*part18	*	*part18	*part17	*part17	*part16	*part16	*part15	*part15	*part14	*part14	*part13	*part13	*part12	*part12	*part11	*part11	*part10	*part9	*part8	*part8	*part7	*part7	*part6	*part6	*part5	*part5	*part4	*part4	*part3	*part3	*part2	*part2	*part1	*part1
*staff18	*	*	*staff17	*	*staff16	*	*staff15	*	*staff14	*staff14	*staff13	*staff13	*staff12	*staff12	*staff11	*staff11	*staff10	*staff9	*staff8	*	*staff7	*	*staff6	*	*staff5	*	*staff4	*	*staff3	*	*staff2	*	*staff1	*
*I"Organo.	*	*	*I"Viola.	*	*I"Violino Secondo	*	*I"Violino Primo.	*	*I"Baſso!	*	*I"Tenore.	*	*I"Alto.	*	*I"Canto	*	*I"Tympano in C. G.	*I"Calrino Prinpalo. in C.	*I"Corno Secundo in G	*	*I"Corno Primo in G	*	*I"Fagotto Secondo.	*	*I"Fagotto Primo.	*	*I"Clarinetto Secondo. in C.	*	*I"Clarinetto Primo in C	*	*I"Flauto Secondo.	*	*I"Flauto Primo.	*
*I|Org	*	*	*I|Vla	*	*I|Vl II	*	*I|Vl I	*	*I|B	*	*I|T	*	*I|A	*	*I|S	*	*I|Timp	*I|Clno princ in C	*I|Cor II in G	*	*I|Cor I in G	*	*I|Fag II	*	*I|Fag I	*	*I|Cl II in C	*	*I|Cl I in C	*	*I|Fl II	*	*I|Fl I	*
*clefF4	*	*	*clefC3	*	*clefG2	*	*clefG2	*	*clefF4	*	*clefC4	*	*clefC3	*	*clefC1	*	*clefF4	*clefG2	*clefG2	*	*clefG2	*	*clefF4	*	*clefF4	*	*clefG2	*	*clefG2	*	*clefG2	*	*clefG2	*
*	*	*	*	*	*	*	*	*	*	*	*Trd0c0	*	*	*	*	*	*	*	*Trd0c0	*	*Trd0c0	*	*	*	*	*	*	*	*	*	*	*	*	*
*k[b-e-a-]	*	*	*k[b-e-a-]	*	*k[b-e-a-]	*	*k[b-e-a-]	*	*k[b-e-a-]	*	*k[b-e-a-]	*	*k[b-e-a-]	*	*k[b-e-a-]	*	*k[]	*k[b-e-a-]	*k[]	*	*k[]	*	*k[b-e-a-]	*	*k[b-e-a-]	*	*k[b-e-a-]	*	*k[b-e-a-]	*	*k[b-e-a-]	*	*k[b-e-a-]	*
*E-:	*	*	*E-:	*	*E-:	*	*E-:	*	*E-:	*	*E-:	*	*E-:	*	*E-:	*	*	*E-:	*	*	*	*	*E-:	*	*E-:	*	*E-:	*	*E-:	*	*E-:	*	*E-:	*
*M3/4	*	*	*M3/4	*	*M3/4	*	*M3/4	*	*M3/4	*	*M3/4	*	*M3/4	*	*M3/4	*	*M3/4	*M3/4	*M3/4	*	*M3/4	*	*M3/4	*	*M3/4	*	*M3/4	*	*M3/4	*	*M3/4	*	*M3/4	*
=1	=1	=1	=1	=1	=1	=1	=1	=1	=1	=1	=1	=1	=1	=1	=1	=1	=1	=1	=1	=1	=1	=1	=1	=1	=1	=1	=1	=1	=1	=1	=1	=1	=1	=1
*2\right	*	*	*2\right	*	*2\right	*	*2\right	*below	*2\right	*	*2\right	*	*2\right	*	*2\right	*	*2\right	*2\right	*2\right	*	*2\right	*	*2\right	*	*2\right	*	*2\right	*	*2\right	*	*2\right	*	*2\right	*
*all\right	*	*	*all\right	*	*	*	*	*	*all\right	*	*	*	*	*	*	*	*	*	*	*	*all\right	*	*	*	*	*	*all\right	*	*all\right	*	*	*	*all\right	*
!	!	!	!	!	!	!	!	!	!	!	!	!	!	!	!LO:TX:t=P:problem:błędnie wpisane znaki: f- zamiast ee-	!	!	!	!LO:TX:a:t=2	!	!	!	!	!	!	!	!	!	!	!	!	!	!LO:TX:t=P:problem:kolejność znaków: ee- b- a-	!
!LO:TX:t=P:problem:znaki: A- zamiast AA-	!	!	!LO:TX:t=P:problem:kolejność znaków: e- B- A-	!	!	!	!	!	!LO:TX:a:t=2	!	!	!	!	!	!LO:TX:a:t=Adagio	!	!	!	!	!	!LO:TX:a:t=2	!	!LO:TX:a:t=2	!	!LO:TX:a:t=2.	!	!LO:TX:a:t=Adagio	!	!	!	!LO:TX:a:t=Adagio.	!	!LO:TX:a:t=Adagio.	!
!LO:TX:a:t=Adagio	!	!LO:DY:b:Bi:t=for	!LO:TX:a:t=Adagio	!LO:DY:b:Bi:t=f	!LO:TX:a:t=Adagio	!	!LO:TX:a:t=adagio.	!LO:DY:b:Bi:rj:	!LO:TX:t=P:problem:znaki: A- zamiast AA-	!	!LO:TX:a:t=2	!	!LO:TX:a:t=2.	!	!LO:TX:a:t=2.	!	!LO:TX:a:t=Benedictus et Agnus Dei Tacet.	!LO:TX:a:t=Agnus Tacet.	!LO:TX:a:t=Adagio inC	!	!LO:TX:a:t=Adagio in C	!	!LO:TX:a:t=Adago.	!	!LO:TX:a:t=Adagio	!	!LO:TX:a:t=2.	!	!LO:TX:a:t=2.	!	!LO:TX:a:t=2.	!	!LO:TX:a:t=2.	!
4.C/	8	f	4.c/	f	4.c/	.	4.c/	f	1.r	.	1.r	.	1.r	.	1.r	.	2.ryy	2.ryy	1.r	.	1.r	.	1.r	.	1.r	.	1.r	.	1.r	.	1.r	.	1.r	.
8C/L	_	.	8c/L	.	8c/L	.	8c/L	.	.	.	.	.	.	.	.	.	.	.	.	.	.	.	.	.	.	.	.	.	.	.	.	.	.	.
8C/	.	.	8c/	.	8c/	.	8c/	.	.	.	.	.	.	.	.	.	.	.	.	.	.	.	.	.	.	.	.	.	.	.	.	.	.	.
8C/J	.	.	8c/J	.	8c/J	.	8c/J	.	.	.	.	.	.	.	.	.	.	.	.	.	.	.	.	.	.	.	.	.	.	.	.	.	.	.
=2	=2	=2	=2	=2	=2	=2	=2	=2	=2	=2	=2	=2	=2	=2	=2	=2	=2	=2	=2	=2	=2	=2	=2	=2	=2	=2	=2	=2	=2	=2	=2	=2	=2	=2
8.BBn/L	8	.	8.Bn/L	.	8.Bn/L	.	8.Bn/L	.	.	.	.	.	.	.	.	.	2.ryy	2.ryy	.	.	.	.	.	.	.	.	.	.	.	.	.	.	.	.
16D/Jk	_	.	16d/Jk	.	16d/Jk	.	16d/Jk	.	.	.	.	.	.	.	.	.	.	.	.	.	.	.	.	.	.	.	.	.	.	.	.	.	.	.
4GG/	.	.	4G/	.	4G/	.	4G/	.	.	.	.	.	.	.	.	.	.	.	.	.	.	.	.	.	.	.	.	.	.	.	.	.	.	.
4r	.	.	4r	.	4r	.	4r	.	.	.	.	.	.	.	.	.	.	.	.	.	.	.	.	.	.	.	.	.	.	.	.	.	.	.
=3	=3	=3	=3	=3	=3	=3	=3	=3	=3	=3	=3	=3	=3	=3	=3	=3	=3	=3	=3	=3	=3	=3	=3	=3	=3	=3	=3	=3	=3	=3	=3	=3	=3	=3
!LO:TX:a:t=3.	!	!	!LO:TX:a:t=3	!	!LO:TX:a:t=3	!	!LO:TX:a:t=3.	!	!LO:TX:a:t=Adagio	!	!	!	!	!	!	!	!	!	!	!LO:DY:b:Bi:t=p:rj	!	!LO:DY:b:Bi:t=p	!	!LO:DY:b:Bi:t=p	!	!LO:DY:b:Bi:p	!LO:TX:t=P:problem:2\right:global	!LO:DY:b:Bi:rj	!LO:TX:t=P:problem:2\right:global	!	!	!LO:DY:b:Bi:t=p	!	!
1.r	x	.	1.r	.	1.r	.	1.r	.	2G\	A-	2g\	A-	2bn\	A-	2dd\	A-	2.ryy	2.ryy	2.G/	p	2.g/	p	8r	p	8r	p	2bn\	p	2dd\	p	2bbn\	p	2ddd\	.
.	.	.	.	.	.	.	.	.	.	.	.	.	.	.	.	.	.	.	.	.	.	.	8GG/L	.	8GG/L	.	.	.	.	.	.	.	.	.
.	.	.	.	.	.	.	.	.	.	.	.	.	.	.	.	.	.	.	.	.	.	.	8BBn/	.	8BBn/	.	.	.	.	.	.	.	.	.
.	.	.	.	.	.	.	.	.	.	.	.	.	.	.	.	.	.	.	.	.	.	.	8D/J	.	8D/J	.	.	.	.	.	.	.	.	.
!	!	!	!	!	!	!	!	!	!	!	!	!	!	!	!	!	!	!	!	!	!	!	!LO:TX:t=P:problem:mixed beam	!	!LO:TX:t=P:problem:mixed beam	!	!	!	!	!	!	!	!	!
.	.	.	.	.	.	.	.	.	4G\	-gnus	4g\	-gnus	4b\	-gnus	4gg\	-gnus	.	.	.	.	.	.	8G\L	.	8G\L	.	4b\	.	4gg\	.	4bb\	.	4ggg\	.
.	.	.	.	.	.	.	.	.	.	.	.	.	.	.	.	.	.	.	.	.	.	.	8GG/J	.	8GG/J	.	.	.	.	.	.	.	.	.
=4	=4	=4	=4	=4	=4	=4	=4	=4	=4	=4	=4	=4	=4	=4	=4	=4	=4	=4	=4	=4	=4	=4	=4	=4	=4	=4	=4	=4	=4	=4	=4	=4	=4	=4
.	.	.	.	.	.	.	.	.	4c\	De-	4g\	De-	4g\	Dĕ-	4ee-X\	Dĕ-	2.ryy	2.ryy	4c/	.	4cc\	.	4C\	.	4C/	.	4g\	.	4ee-X\	.	4gg\	.	4eee-\	.
*	*	*	*	*	*	*	*	*	*	*	*	*	*	*	*	*	*	*	*tremolo	*	*	*	*	*	*	*	*	*	*	*	*	*	*	*
.	.	.	.	.	.	.	.	.	4C/	-i	4g\	-i	4e-X\	-i	4cc\	-i	.	.	8c'/L	.	8cc\L	.	4CC/	.	4CC/	.	4e-X/	.	4cc\	.	4ee-X\	.	4ccc\	.
.	.	.	.	.	.	.	.	.	.	.	.	.	.	.	.	.	.	.	8c'/	.	8cc\	.	.	.	.	.	.	.	.	.	.	.	.	.
.	.	.	.	.	.	.	.	.	4r	.	4r	.	4r	.	4r	.	.	.	8c'/	.	8cc\	.	4r	.	4r	.	4r	.	4r	.	4r	.	4r	.
.	.	.	.	.	.	.	.	.	.	.	.	.	.	.	.	.	.	.	8c'/J	.	8cc\J	.	.	.	.	.	.	.	.	.	.	.	.	.
=5	=5	=5	=5	=5	=5	=5	=5	=5	=5	=5	=5	=5	=5	=5	=5	=5	=5	=5	=5	=5	=5	=5	=5	=5	=5	=5	=5	=5	=5	=5	=5	=5	=5	=5
2.r	.	.	2.r	.	2.r	.	2.r	.	4G\	de-	4g\	De-	4bn\	Dĕ-	4dd\	Dĕ-	2.ryy	2.ryy	2.G/	.	2.g/	.	8r	.	8r	.	2bn\	.	2dd\	.	2bbn\	.	2ddd\	.
.	.	.	.	.	.	.	.	.	.	.	.	.	.	.	.	.	.	.	.	.	.	.	8GG/L	.	8GG/L	.	.	.	.	.	.	.	.	.
.	.	.	.	.	.	.	.	.	4G\	-i	4g\	-i	4b\	-i	4dd\	-i	.	.	.	.	.	.	8BBn/	.	8BBn/	.	.	.	.	.	.	.	.	.
.	.	.	.	.	.	.	.	.	.	.	.	.	.	.	.	.	.	.	.	.	.	.	8D/J	.	8D/J	.	.	.	.	.	.	.	.	.
!	!	!	!	!	!	!	!	!	!	!	!	!	!	!	!	!	!	!	!	!	!	!	!LO:TX:t=P:problem:mixed beam	!	!LO:TX:t=P:problem:mixed beam	!	!	!	!	!	!	!	!	!
.	.	.	.	.	.	.	.	.	4G\	qvi	4g\	qui	4b\	qui	4gg\	qui	.	.	.	.	.	.	8G\L	.	8G\L	.	4b\	.	4gg\	.	4bb\	.	4ggg\	.
.	.	.	.	.	.	.	.	.	.	.	.	.	.	.	.	.	.	.	.	.	.	.	8GG/J	.	8GG/J	.	.	.	.	.	.	.	.	.
=6	=6	=6	=6	=6	=6	=6	=6	=6	=6	=6	=6	=6	=6	=6	=6	=6	=6	=6	=6	=6	=6	=6	=6	=6	=6	=6	=6	=6	=6	=6	=6	=6	=6	=6
*tremolo	*	*	*	*	*	*	*	*	*	*	*	*	*	*	*	*	*	*	*Xtremolo	*	*	*	*	*	*	*	*	*	*	*	*	*	*	*
*	*	*	*tremolo	*	*	*	*	*	*	*	*	*	*	*	*	*	*	*	*	*	*	*	*	*	*	*	*	*	*	*	*	*	*	*
*	*	*	*	*	*tremolo	*	*	*	*	*	*	*	*	*	*	*	*	*	*	*	*	*	*	*	*	*	*	*	*	*	*	*	*	*
!	!	!LO:DY:b:Bi:t=pia:rj	!	!LO:DY:b:Bi:t=p	!	!LO:DY:b:Bi:rj	!	!	!	!	!	!	!	!	!	!	!	!	!	!	!	!	!	!	!LO:LB:g=original	!	!	!	!	!	!	!	!	!
8C/L	3	p	8c\L	p	8G/ 8e-L	p	16r	.	4c\	tol-	4g\	tol-	4g\	tol-	4ee-\	tol-	2.ryy	2.ryy	4c/	.	4cc\	.	4C\	.	4C/	.	4g\	.	4ee-X\	.	4gg\	.	4eee-\	.
.	.	.	.	.	.	.	16gg'\LL	.	.	.	.	.	.	.	.	.	.	.	.	.	.	.	.	.	.	.	.	.	.	.	.	.	.	.
8C/	5 3	.	8c\	.	8G/ 8e-	.	(16dd\	.	.	.	.	.	.	.	.	.	.	.	.	.	.	.	.	.	.	.	.	.	.	.	.	.	.	.
.	.	.	.	.	.	.	16ee-\JJ)	.	.	.	.	.	.	.	.	.	.	.	.	.	.	.	.	.	.	.	.	.	.	.	.	.	.	.
8C/	.	.	8c\	.	8G/ 8e-	.	16bn/LL	.	4C/	-lis	4g\	-lis	4e-\	-lis	4cc\	-lis	.	.	4c/	.	4cc\	.	4CC/	.	4CC/	.	4e-X/	.	4cc\	.	4ee-X\	.	4ccc\	.
.	.	.	.	.	.	.	16cc/	.	.	.	.	.	.	.	.	.	.	.	.	.	.	.	.	.	.	.	.	.	.	.	.	.	.	.
8C/	.	.	8c\	.	8G/ 8e-	.	16f#X/	.	.	.	.	.	.	.	.	.	.	.	.	.	.	.	.	.	.	.	.	.	.	.	.	.	.	.
.	.	.	.	.	.	.	16g/JJ	.	.	.	.	.	.	.	.	.	.	.	.	.	.	.	.	.	.	.	.	.	.	.	.	.	.	.
8C/	.	.	8c\	.	8G/ 8e-	.	(<16d/LL	.	4r	.	4r	.	4r	.	4r	.	.	.	4r	.	4r	.	4r	.	4r	.	4r	.	4r	.	4r	.	4r	.
.	.	.	.	.	.	.	16e-/)	.	.	.	.	.	.	.	.	.	.	.	.	.	.	.	.	.	.	.	.	.	.	.	.	.	.	.
8C/J	.	.	8c\J	.	8G/ 8e-J	.	(16Bn/	.	.	.	.	.	.	.	.	.	.	.	.	.	.	.	.	.	.	.	.	.	.	.	.	.	.	.
.	.	.	.	.	.	.	16c/JJ)	.	.	.	.	.	.	.	.	.	.	.	.	.	.	.	.	.	.	.	.	.	.	.	.	.	.	.
=7	=7	=7	=7	=7	=7	=7	=7	=7	=7	=7	=7	=7	=7	=7	=7	=7	=7	=7	=7	=7	=7	=7	=7	=7	=7	=7	=7	=7	=7	=7	=7	=7	=7	=7
!	!	!LO:DY:b:Bi:t=for:rj	!	!LO:DY:b:Bi:t=f	!	!LO:DY:b:Bi:t=f:rj	!	!	!LO:LB:g=original	!	!	!	!	!	!	!	!	!	!	!LO:DY:b:Bi:t=f:rj	!	!LO:DY:b:Bi:t=f.	!LO:LB:g=original	!	!LO:TX:t=P:problem:2\right:global	!LO:DY:b:Bi:f	!	!LO:DY:b:Bi:t=f.:rj	!	!LO:DY:b:Bi:t=rf.:rj	!LO:LB:g=original	!	!	!LO:DY:b:Bi:t=f
8C/L	_ _	f	8c\L	f	8G/ 8e-L	f	16G/LL	.	2c\	pec-	2c\	mi-	2g\	Mi-	2ee-\	Mi-	2.ryy	2.ryy	2.c/	f	2.cc\	f	2.c\	rf	2.e-\	f	2.cc\	f	2.ee-X\	rf	2.ccc\	rf	2.eee-\	f
.	.	.	.	.	.	.	16e-/	.	.	.	.	.	.	.	.	.	.	.	.	.	.	.	.	.	.	.	.	.	.	.	.	.	.	.
8C/	.	.	8c\	.	8G/ 8e-	.	16c/	.	.	.	.	.	.	.	.	.	.	.	.	.	.	.	.	.	.	.	.	.	.	.	.	.	.	.
.	.	.	.	.	.	.	16g/JJ	.	.	.	.	.	.	.	.	.	.	.	.	.	.	.	.	.	.	.	.	.	.	.	.	.	.	.
8C/	.	.	8c\	.	8G/ 8e-	.	16e-|/LL	.	.	.	.	.	.	.	.	.	.	.	.	.	.	.	.	.	.	.	.	.	.	.	.	.	.	.
.	.	.	.	.	.	.	16cc|/	.	.	.	.	.	.	.	.	.	.	.	.	.	.	.	.	.	.	.	.	.	.	.	.	.	.	.
8C/	.	.	8c\	.	8G/ 8e-	.	(16g/	.	.	.	.	.	.	.	.	.	.	.	.	.	.	.	.	.	.	.	.	.	.	.	.	.	.	.
.	.	.	.	.	.	.	16ee-/JJ)	.	.	.	.	.	.	.	.	.	.	.	.	.	.	.	.	.	.	.	.	.	.	.	.	.	.	.
!	!	!	!	!	!	!	!LO:LB:g=original	!	!	!	!	!	!	!	!	!	!	!	!	!	!	!	!	!	!	!	!	!	!	!	!	!	!	!
8C/	.	.	8c\	.	8G/ 8e-	.	16cc|\LL	.	4c\	.	4c\	-se-	4g\	-se-	4ee-\	-se-	.	.	.	.	.	.	.	.	.	.	.	.	.	.	.	.	.	.
.	.	.	.	.	.	.	16gg'\	.	.	.	.	.	.	.	.	.	.	.	.	.	.	.	.	.	.	.	.	.	.	.	.	.	.	.
8C/J	.	.	8c\J	.	8G/ 8e-J	.	(16ee-\	.	.	.	.	.	.	.	.	.	.	.	.	.	.	.	.	.	.	.	.	.	.	.	.	.	.	.
.	.	.	.	.	.	.	16cc\JJ)	.	.	.	.	.	.	.	.	.	.	.	.	.	.	.	.	.	.	.	.	.	.	.	.	.	.	.
=8	=8	=8	=8	=8	=8	=8	=8	=8	=8	=8	=8	=8	=8	=8	=8	=8	=8	=8	=8	=8	=8	=8	=8	=8	=8	=8	=8	=8	=8	=8	=8	=8	=8	=8
!	!	!LO:DY:b:Bi:t=pia	!	!LO:DY:b:Bi:t=p	!LO:N:n=2:vis=2	!LO:DY:b:Bi:rj:t=p	!	!LO:DY:b:Bi:	!	!	!	!	!LO:LB:g=original	!	!	!	!	!	!	!LO:DY:b:Bi:t=p:rj	!	!LO:DY:b:Bi:t=p	!	!LO:DY:b:Bi:t=p	!	!LO:DY:b:Bi:p	!	!	!	!	!	!LO:DY:b:Bi:t=p	!	!
8BBn/L	.	p	8d\L	p	8G/ 8fL	p	16r	p	4Bn\	-ca-	4g\	-re-	4f\	-re-	4dd\	-re-	2.ryy	2.ryy	2G/	p	2g/	p	2Bn\	p	2d\	p	2bn\	p	2dd\	p	2bbn\	p	2ddd\	p
.	.	.	.	.	.	.	16ff|\LL	.	.	.	.	.	.	.	.	.	.	.	.	.	.	.	.	.	.	.	.	.	.	.	.	.	.	.
8BBn/	.	.	8d\	.	8G/ 8f	.	(16cc#X\	.	.	.	.	.	.	.	.	.	.	.	.	.	.	.	.	.	.	.	.	.	.	.	.	.	.	.
.	.	.	.	.	.	.	16dd\JJ)	.	.	.	.	.	.	.	.	.	.	.	.	.	.	.	.	.	.	.	.	.	.	.	.	.	.	.
8BBn/	.	.	8d\	.	8G/ 8f	.	16a#X/LL	.	4B\	-ta	4g\	-re	4f\	-re	4dd\	-re	.	.	.	.	.	.	.	.	.	.	.	.	.	.	.	.	.	.
.	.	.	.	.	.	.	16bn/	.	.	.	.	.	.	.	.	.	.	.	.	.	.	.	.	.	.	.	.	.	.	.	.	.	.	.
8BBn/	.	.	8d\	.	8G/ 8f	.	16f#X/	.	.	.	.	.	.	.	.	.	.	.	.	.	.	.	.	.	.	.	.	.	.	.	.	.	.	.
.	.	.	.	.	.	.	16g/JJ	.	.	.	.	.	.	.	.	.	.	.	.	.	.	.	.	.	.	.	.	.	.	.	.	.	.	.
8BBn/	.	.	8d\	.	8G/ 8f	.	16c#X/LL	.	4r	.	4r	.	4r	.	4r	.	.	.	4r	.	4r	.	4r	.	4r	.	4r	.	4r	.	4r	.	4r	.
.	.	.	.	.	.	.	16d/	.	.	.	.	.	.	.	.	.	.	.	.	.	.	.	.	.	.	.	.	.	.	.	.	.	.	.
8BBn/J	.	.	8d\J	.	8G/ 8fJ	.	16An/	.	.	.	.	.	.	.	.	.	.	.	.	.	.	.	.	.	.	.	.	.	.	.	.	.	.	.
.	.	.	.	.	.	.	16B-/JJ	.	.	.	.	.	.	.	.	.	.	.	.	.	.	.	.	.	.	.	.	.	.	.	.	.	.	.
=9	=9	=9	=9	=9	=9	=9	=9	=9	=9	=9	=9	=9	=9	=9	=9	=9	=9	=9	=9	=9	=9	=9	=9	=9	=9	=9	=9	=9	=9	=9	=9	=9	=9	=9
!LO:SIC:v:s=2.BBn	!	!LO:DY:b:Bi:t=for	!	!LO:DY:b:Bi:t=f	!	!LO:DY:b:Bi:t=f:rj	!	!LO:DY:rj:b:Bi:	!	!	!LO:LB:g=original	!	!	!	!LO:LB:g=original	!	!	!	!	!LO:DY:b:Bi:t=f:rj	!	!LO:DY:b:Bi:t=f	!	!	!	!	!	!LO:DY:b:Bi:t=f	!	!LO:DY:b:Bi:t=rf.	!	!LO:DY:b:Bi:t=f	!	!LO:DY:b:Bi:t=f.
*	*	*	*	*	*	*	*	*	*	*	*	*	*	*	*	*ij	*	*	*	*	*	*	*	*	*	*	*	*	*	*	*	*	*	*
8BB-/L	.	f	8d\L	f	8G/ 8fL	f	16G|/LL	f	2Bn\	mun-	2g\	mi-	2f\	Mi-	2dd\	Mi-	2.ryy	2.ryy	2.G/	f	2.g/	f	2.Bn\	rf	2.d\	rf	2.bn\	f	2.dd\	rf	2.bbn\	f	2.ddd\	f
.	.	.	.	.	.	.	16d|/	.	.	.	.	.	.	.	.	.	.	.	.	.	.	.	.	.	.	.	.	.	.	.	.	.	.	.
8BB-/	.	.	8d\	.	8G/ 8f	.	(16Bn/	.	.	.	.	.	.	.	.	.	.	.	.	.	.	.	.	.	.	.	.	.	.	.	.	.	.	.
.	.	.	.	.	.	.	16g/JJ)	.	.	.	.	.	.	.	.	.	.	.	.	.	.	.	.	.	.	.	.	.	.	.	.	.	.	.
8BB-/	.	.	8d\	.	8G/ 8f	.	16d|/LL	.	.	.	.	.	.	.	.	.	.	.	.	.	.	.	.	.	.	.	.	.	.	.	.	.	.	.
.	.	.	.	.	.	.	16bn|/	.	.	.	.	.	.	.	.	.	.	.	.	.	.	.	.	.	.	.	.	.	.	.	.	.	.	.
8BB-/	.	.	8d\	.	8G/ 8f	.	(16g/	.	.	.	.	.	.	.	.	.	.	.	.	.	.	.	.	.	.	.	.	.	.	.	.	.	.	.
.	.	.	.	.	.	.	16dd/JJ)	.	.	.	.	.	.	.	.	.	.	.	.	.	.	.	.	.	.	.	.	.	.	.	.	.	.	.
8BB-/	.	.	8d\	.	8G/ 8f	.	16b|\LL	.	4B\	.	4g\	-se-	4f\	-se-	4dd\	-se-	.	.	.	.	.	.	.	.	.	.	.	.	.	.	.	.	.	.
.	.	.	.	.	.	.	16ff|\	.	.	.	.	.	.	.	.	.	.	.	.	.	.	.	.	.	.	.	.	.	.	.	.	.	.	.
8BB-/J	.	.	8d\J	.	8G/ 8fJ	.	(16dd\	.	.	.	.	.	.	.	.	.	.	.	.	.	.	.	.	.	.	.	.	.	.	.	.	.	.	.
.	.	.	.	.	.	.	16b\JJ)	.	.	.	.	.	.	.	.	.	.	.	.	.	.	.	.	.	.	.	.	.	.	.	.	.	.	.
=10	=10	=10	=10	=10	=10	=10	=10	=10	=10	=10	=10	=10	=10	=10	=10	=10	=10	=10	=10	=10	=10	=10	=10	=10	=10	=10	=10	=10	=10	=10	=10	=10	=10	=10
!	!	!LO:DY:b:Bi:t=pia	!	!LO:DY:b:Bi:t=p	!LO:N:n=2:vis=2	!LO:DY:b:Bi:rj	!	!	!	!	!	!	!	!	!	!	!	!	!LO:LB:g=original	!	!	!LO:DY:b:Bi:t=p	!	!LO:DY:b:Bi:t=p	!	!LO:DY:b:Bi:p	!	!	!	!	!	!LO:DY:b:Bi:t=p	!LO:LB:g=original	!LO:DY:b:Bi:t=p
8C/L	x	p	8c\L	p	8G/ 8e-L	p	16r	.	4c\	.	4c\	-re-	4g\	-re-	4ee-\	-re-	2.ryy	2.ryy	2c/	.	2cc\	p	2c\	p	2e-\	p	2cc\	p	2ee-X\	p	2ccc\	p	2eee-\	p
!	!	!	!	!	!	!	!	!LO:DY:b:Bi:	!	!	!	!	!	!	!	!	!	!	!	!	!	!	!	!	!	!	!	!	!	!	!	!	!	!
.	.	.	.	.	.	.	16gg\LL	p	.	.	.	.	.	.	.	.	.	.	.	.	.	.	.	.	.	.	.	.	.	.	.	.	.	.
8C/	.	.	8c\	.	8G/ 8e-	.	16dd\	.	.	.	.	.	.	.	.	.	.	.	.	.	.	.	.	.	.	.	.	.	.	.	.	.	.	.
.	.	.	.	.	.	.	16ee-\JJ	.	.	.	.	.	.	.	.	.	.	.	.	.	.	.	.	.	.	.	.	.	.	.	.	.	.	.
8C/	.	.	8c\	.	8G/ 8e-	.	16bn/LL	.	4c\	-di	4c\	-re	4g\	-re	4ee-\	-re	.	.	.	.	.	.	.	.	.	.	.	.	.	.	.	.	.	.
*	*	*	*	*	*	*	*	*	*	*	*	*	*	*	*	*Xij	*	*	*	*	*	*	*	*	*	*	*	*	*	*	*	*	*	*
.	.	.	.	.	.	.	16cc/	.	.	.	.	.	.	.	.	.	.	.	.	.	.	.	.	.	.	.	.	.	.	.	.	.	.	.
8C/	.	.	8c\	.	8G/ 8e-	.	16f#X/	.	.	.	.	.	.	.	.	.	.	.	.	.	.	.	.	.	.	.	.	.	.	.	.	.	.	.
.	.	.	.	.	.	.	16g/JJ	.	.	.	.	.	.	.	.	.	.	.	.	.	.	.	.	.	.	.	.	.	.	.	.	.	.	.
8C/	.	.	8c\	.	8G/ 8e-	.	(16d/LL	.	4r	.	4r	.	4r	.	4r	.	.	.	4r	.	4r	.	4r	.	4r	.	4r	.	4r	.	4r	.	4r	.
.	.	.	.	.	.	.	16e-/)	.	.	.	.	.	.	.	.	.	.	.	.	.	.	.	.	.	.	.	.	.	.	.	.	.	.	.
8C/J	.	.	8c\J	.	8G/ 8e-J	.	(16Bn/	.	.	.	.	.	.	.	.	.	.	.	.	.	.	.	.	.	.	.	.	.	.	.	.	.	.	.
.	.	.	.	.	.	.	16c/JJ)	.	.	.	.	.	.	.	.	.	.	.	.	.	.	.	.	.	.	.	.	.	.	.	.	.	.	.
=11	=11	=11	=11	=11	=11	=11	=11	=11	=11	=11	=11	=11	=11	=11	=11	=11	=11	=11	=11	=11	=11	=11	=11	=11	=11	=11	=11	=11	=11	=11	=11	=11	=11	=11
!LO:LB:g=original	!	!LO:DY:b:Bi:t=for	!	!LO:DY:b:Bi:t=f	!LO:N:n=2:vis=2	!LO:DY:b:Bi:t=f:rj	!	!LO:DY:rj:b:Bi:	!	!	!	!	!	!	!	!	!	!	!	!	!LO:LB:g=original	!LO:DY:b:Bi:t=f	!	!	!	!	!LO:LB:g=original	!LO:DY:b:Bi:f	!LO:LB:g=original	!LO:DY:b:Bi:t=rf.	!	!LO:DY:b:Bi:t=f	!	!LO:DY:b:Bi:t=f
8C/L	.	f	8c\L	f	8G/ 8e-L	f	16G'/LL	f	2.C/	Mi-	2.c\	no-	2.g\	no-	2.ee-\	no-	2.ryy	2.ryy	2.c/	.	2.cc\	f	2.c\	rf	2.e-\	rf	2.cc\	f	2.ee-\	rf	2.ccc\	f	2.eee-\	f
.	.	.	.	.	.	.	16e-'/	.	.	.	.	.	.	.	.	.	.	.	.	.	.	.	.	.	.	.	.	.	.	.	.	.	.	.
8C/	.	.	8c\	.	8G/ 8e-	.	(16c/	.	.	.	.	.	.	.	.	.	.	.	.	.	.	.	.	.	.	.	.	.	.	.	.	.	.	.
.	.	.	.	.	.	.	16g/JJ)	.	.	.	.	.	.	.	.	.	.	.	.	.	.	.	.	.	.	.	.	.	.	.	.	.	.	.
8C/	.	.	8c\	.	8G/ 8e-	.	16e-/LL	.	.	.	.	.	.	.	.	.	.	.	.	.	.	.	.	.	.	.	.	.	.	.	.	.	.	.
.	.	.	.	.	.	.	16cc/	.	.	.	.	.	.	.	.	.	.	.	.	.	.	.	.	.	.	.	.	.	.	.	.	.	.	.
8C/	.	.	8c\	.	8G/ 8e-	.	16g/	.	.	.	.	.	.	.	.	.	.	.	.	.	.	.	.	.	.	.	.	.	.	.	.	.	.	.
.	.	.	.	.	.	.	16ee-/JJ	.	.	.	.	.	.	.	.	.	.	.	.	.	.	.	.	.	.	.	.	.	.	.	.	.	.	.
!	!	!	!	!	!	!	!LO:LB:g=original	!	!	!	!	!	!	!	!	!	!	!	!	!	!	!	!	!	!	!	!	!	!	!	!	!	!	!
8C/	.	.	8c\	.	8G/ 8e-	.	16cc|\LL	.	.	.	.	.	.	.	.	.	.	.	.	.	.	.	.	.	.	.	.	.	.	.	.	.	.	.
.	.	.	.	.	.	.	16gg'\	.	.	.	.	.	.	.	.	.	.	.	.	.	.	.	.	.	.	.	.	.	.	.	.	.	.	.
8C/J	.	.	8c\J	.	8G/ 8e-J	.	(16ee-\	.	.	.	.	.	.	.	.	.	.	.	.	.	.	.	.	.	.	.	.	.	.	.	.	.	.	.
.	.	.	.	.	.	.	16cc\JJ)	.	.	.	.	.	.	.	.	.	.	.	.	.	.	.	.	.	.	.	.	.	.	.	.	.	.	.
=12	=12	=12	=12	=12	=12	=12	=12	=12	=12	=12	=12	=12	=12	=12	=12	=12	=12	=12	=12	=12	=12	=12	=12	=12	=12	=12	=12	=12	=12	=12	=12	=12	=12	=12
!LO:TX:t=P:problem:2\right:global	!LO:DY:b:Bi:t=p:	!	!	!LO:DY:b:Bi:t=p	!LO:LB:g=original	!LO:DY:b:Bi:rj	!	!LO:DY:b:Bi:	!	!	!	!	!	!	!	!	!	!	!LO:TX:a:t=33	!	!LO:TX:a:t=33	!	!	!	!	!LO:DY:b:Bi:p	!	!	!	!	!	!LO:DY:b:Bi:t=p	!	!LO:DY:b:Bi:t=p
8E-X\L	.	p	8e-X\L	p	8B-X/ 8gL	p	16r	p	2E-X\	-se-	2B-X\	-bis	2f\	-bis	2dd-X\	-bis	2.ryy	2.ryy	2.r	.	2.r	.	2B-X\	p	2d-X\	p	2.b-X\	p	2dd-X\	p	2bb-X\	p	2ddd-X\	p
.	.	.	.	.	.	.	16dd-X|\LL	.	.	.	.	.	.	.	.	.	.	.	.	.	.	.	.	.	.	.	.	.	.	.	.	.	.	.
8E-X\	.	.	8e-X\	.	8B-X/ 8g	.	(16an\	.	.	.	.	.	.	.	.	.	.	.	.	.	.	.	.	.	.	.	.	.	.	.	.	.	.	.
.	.	.	.	.	.	.	16b-X\JJ)	.	.	.	.	.	.	.	.	.	.	.	.	.	.	.	.	.	.	.	.	.	.	.	.	.	.	.
8E-X\	.	.	8e-X\	.	8B-X/ 8g	.	(16f#X/LL	.	.	.	.	.	.	.	.	.	.	.	.	.	.	.	.	.	.	.	.	.	.	.	.	.	.	.
.	.	.	.	.	.	.	16g/)	.	.	.	.	.	.	.	.	.	.	.	.	.	.	.	.	.	.	.	.	.	.	.	.	.	.	.
8E-X\	.	.	8e-X\	.	8B-X/ 8g	.	(16dn/	.	.	.	.	.	.	.	.	.	.	.	.	.	.	.	.	.	.	.	.	.	.	.	.	.	.	.
.	.	.	.	.	.	.	16e-X/JJ)	.	.	.	.	.	.	.	.	.	.	.	.	.	.	.	.	.	.	.	.	.	.	.	.	.	.	.
8E-X\	.	.	8e-X\	.	8B-X/ 8g	.	16c/LL	.	4r	.	4r	.	4r	.	4r	.	.	.	.	.	.	.	4r	.	4r	.	.	.	4r	.	4r	.	4r	.
.	.	.	.	.	.	.	16d-X/	.	.	.	.	.	.	.	.	.	.	.	.	.	.	.	.	.	.	.	.	.	.	.	.	.	.	.
8E-X\J	.	.	8e-X\J	.	8B-X/ 8gJ	.	16An/	.	.	.	.	.	.	.	.	.	.	.	.	.	.	.	.	.	.	.	.	.	.	.	.	.	.	.
.	.	.	.	.	.	.	16B-/JJ	.	.	.	.	.	.	.	.	.	.	.	.	.	.	.	.	.	.	.	.	.	.	.	.	.	.	.
=13	=13	=13	=13	=13	=13	=13	=13	=13	=13	=13	=13	=13	=13	=13	=13	=13	=13	=13	=13	=13	=13	=13	=13	=13	=13	=13	=13	=13	=13	=13	=13	=13	=13	=13
!	!	!LO:DY:b:Bi:t=f.	!LO:LB:g=original	!LO:DY:b:Bi:t=f	!	!LO:DY:b:Bi:t=f:rj	!	!LO:DY:rj:b:Bi:	!LO:LB:g=original	!	!	!	!	!	!	!	!	!	!	!	!	!	!	!	!	!	!LO:TX:t=P:problem:wykreślona 4r	!LO:DY:b:Bi:	!	!LO:DY:b:Bi:t=f.	!LO:N:vis=2	!LO:DY:b:Bi:t=f	!	!LO:DY:b:Bi:t=f
8E-\L	.	f	8e-\L	f	8B-/ 8gL	f	16G/LL	f	2E-\	-re-	2e-X\	mi-	2b-X\	Mi-	2dd-X\	mi-	2.ryy	2.ryy	2.r	.	2.r	.	2.B-\	rf	2.d-X\	rf	2.b-\	f	2.dd-X\	f	2.bb-\	f	2.ddd-X\	f
.	.	.	.	.	.	.	16e-/	.	.	.	.	.	.	.	.	.	.	.	.	.	.	.	.	.	.	.	.	.	.	.	.	.	.	.
8E-\	.	.	8e-\	.	8B-/ 8g	.	(16B-/	.	.	.	.	.	.	.	.	.	.	.	.	.	.	.	.	.	.	.	.	.	.	.	.	.	.	.
.	.	.	.	.	.	.	16g/JJ)	.	.	.	.	.	.	.	.	.	.	.	.	.	.	.	.	.	.	.	.	.	.	.	.	.	.	.
8E-\	.	.	8e-\	.	8B-/ 8g	.	16e-|/LL	.	.	.	.	.	.	.	.	.	.	.	.	.	.	.	.	.	.	.	.	.	.	.	.	.	.	.
.	.	.	.	.	.	.	16b-|/	.	.	.	.	.	.	.	.	.	.	.	.	.	.	.	.	.	.	.	.	.	.	.	.	.	.	.
8E-\	.	.	8e-\	.	8B-/ 8g	.	(16g/	.	.	.	.	.	.	.	.	.	.	.	.	.	.	.	.	.	.	.	.	.	.	.	.	.	.	.
.	.	.	.	.	.	.	16dd-X/JJ)	.	.	.	.	.	.	.	.	.	.	.	.	.	.	.	.	.	.	.	.	.	.	.	.	.	.	.
8E-\	.	.	8e-\	.	8B-/ 8g	.	16b-/LL	.	4E-\	-re	4e-\	-se-	4b-\	-se-	4dd-\	-se-	.	.	.	.	.	.	.	.	.	.	.	.	.	.	.	.	.	.
.	.	.	.	.	.	.	16g/	.	.	.	.	.	.	.	.	.	.	.	.	.	.	.	.	.	.	.	.	.	.	.	.	.	.	.
8E-\J	.	.	8e-\J	.	8B-/ 8gJ	.	16e-/	.	.	.	.	.	.	.	.	.	.	.	.	.	.	.	.	.	.	.	.	.	.	.	.	.	.	.
.	.	.	.	.	.	.	16d-X/JJ	.	.	.	.	.	.	.	.	.	.	.	.	.	.	.	.	.	.	.	.	.	.	.	.	.	.	.
=14	=14	=14	=14	=14	=14	=14	=14	=14	=14	=14	=14	=14	=14	=14	=14	=14	=14	=14	=14	=14	=14	=14	=14	=14	=14	=14	=14	=14	=14	=14	=14	=14	=14	=14
!	!	!LO:DY:b:Bi:t=p&colon;	!	!LO:DY:b:Bi:t=p	!	!LO:DY:b:Bi:rj	!	!LO:DY:b:Bi:	!	!	!	!	!	!	!	!	!	!	!	!	!	!	!	!LO:DY:b:Bi:t=p	!	!LO:DY:b:Bi:p	!	!	!	!	!	!LO:DY:b:Bi:t=p	!	!
8A-X\L	.	p	8a-X\L	p	8c/ 8e-L	p	16r	p	4A-X\	no-	4e-\	-re-	4cc\	-re-	4ee-\	-re-	2.ryy	2.ryy	2.r	.	2.r	.	2A-X\	p	2c\	p	2a-X\	p	2cc\	p	2ccc\	p	2eee-\	p
.	.	.	.	.	.	.	16ee-X|\LL	.	.	.	.	.	.	.	.	.	.	.	.	.	.	.	.	.	.	.	.	.	.	.	.	.	.	.
8A-X\	.	.	8a-X\	.	8c/ 8e-	.	(16bn\	.	.	.	.	.	.	.	.	.	.	.	.	.	.	.	.	.	.	.	.	.	.	.	.	.	.	.
.	.	.	.	.	.	.	16cc\JJ)	.	.	.	.	.	.	.	.	.	.	.	.	.	.	.	.	.	.	.	.	.	.	.	.	.	.	.
8A-X\	.	.	8a-X\	.	8c/ 8e-	.	(16g/LL	.	4A-\	-bis,	4e-\	-re	4cc\	-re	4ee-\	-re	.	.	.	.	.	.	.	.	.	.	.	.	.	.	.	.	.	.
.	.	.	.	.	.	.	16a-X/)	.	.	.	.	.	.	.	.	.	.	.	.	.	.	.	.	.	.	.	.	.	.	.	.	.	.	.
8A-X\	.	.	8a-X\	.	8c/ 8e-	.	(16d/	.	.	.	.	.	.	.	.	.	.	.	.	.	.	.	.	.	.	.	.	.	.	.	.	.	.	.
.	.	.	.	.	.	.	16e-/JJ)	.	.	.	.	.	.	.	.	.	.	.	.	.	.	.	.	.	.	.	.	.	.	.	.	.	.	.
8A-X\	.	.	8a-X\	.	8c/ 8e-	.	16Bn/LL	.	4r	.	4r	.	4r	.	4r	.	.	.	.	.	.	.	4r	.	4r	.	4r	.	4r	.	4r	.	4r	.
.	.	.	.	.	.	.	16c/	.	.	.	.	.	.	.	.	.	.	.	.	.	.	.	.	.	.	.	.	.	.	.	.	.	.	.
8A-X\J	.	.	8a-X\J	.	8c/ 8e-J	.	16G/	.	.	.	.	.	.	.	.	.	.	.	.	.	.	.	.	.	.	.	.	.	.	.	.	.	.	.
.	.	.	.	.	.	.	16A-/JJ	.	.	.	.	.	.	.	.	.	.	.	.	.	.	.	.	.	.	.	.	.	.	.	.	.	.	.
=15	=15	=15	=15	=15	=15	=15	=15	=15	=15	=15	=15	=15	=15	=15	=15	=15	=15	=15	=15	=15	=15	=15	=15	=15	=15	=15	=15	=15	=15	=15	=15	=15	=15	=15
!	!	!	!	!LO:DY:b:Bi:t=f	!	!LO:DY:b:Bi:t=f:rj	!	!	!	!	!	!	!	!	!LO:LB:g=original	!	!	!	!	!	!	!	!	!	!	!	!	!LO:DY:b:Bi:	!	!LO:DY:b:Bi:t=rf.	!	!LO:DY:b:Bi:t=f	!	!LO:DY:b:Bi:t=f
*	*	*	*	*	*	*	*	*	*	*	*	*ij	*	*	*	*ij	*	*	*	*	*	*	*	*	*	*	*	*	*	*	*	*	*	*
8A-\L	.	f	8a-\L	f	8c/ 8e-L	f	16A-/LL	.	2A-\	Mi-	2e-\	mi-	2e-\	mi-	2cc\	mi-	2.ryy	2.ryy	2.r	.	2.r	.	2.A-\	rf	2.c\	rf	2.cc\	f	2.aa-X\	rf	2.aa-X\	f	2.ccc\	f
.	.	.	.	.	.	.	16e-/	.	.	.	.	.	.	.	.	.	.	.	.	.	.	.	.	.	.	.	.	.	.	.	.	.	.	.
8A-\	.	.	8a-\	.	8c/ 8e-	.	(16c/	.	.	.	.	.	.	.	.	.	.	.	.	.	.	.	.	.	.	.	.	.	.	.	.	.	.	.
.	.	.	.	.	.	.	16a-/JJ)	.	.	.	.	.	.	.	.	.	.	.	.	.	.	.	.	.	.	.	.	.	.	.	.	.	.	.
8A-\	.	.	8a-\	.	8c/ 8e-	.	16e-|/LL	.	.	.	.	.	.	.	.	.	.	.	.	.	.	.	.	.	.	.	.	.	.	.	.	.	.	.
.	.	.	.	.	.	.	16cc|/	.	.	.	.	.	.	.	.	.	.	.	.	.	.	.	.	.	.	.	.	.	.	.	.	.	.	.
8A-\	.	.	8a-\	.	8c/ 8e-	.	(16a-/	.	.	.	.	.	.	.	.	.	.	.	.	.	.	.	.	.	.	.	.	.	.	.	.	.	.	.
.	.	.	.	.	.	.	16ee-/JJ)	.	.	.	.	.	.	.	.	.	.	.	.	.	.	.	.	.	.	.	.	.	.	.	.	.	.	.
!	!	!	!	!	!	!	!LO:LB:g=original	!	!	!	!	!	!	!	!	!	!	!	!	!	!	!	!	!	!	!	!	!	!	!	!	!	!	!
8A-\	.	.	8a-\	.	8c/ 8e-	.	16cc|\LL	.	4A-\	-se-	4e-\	-se-	4e-\	-se-	4cc\	-se-	.	.	.	.	.	.	.	.	.	.	.	.	.	.	.	.	.	.
.	.	.	.	.	.	.	16aa-|\	.	.	.	.	.	.	.	.	.	.	.	.	.	.	.	.	.	.	.	.	.	.	.	.	.	.	.
8A-\J	.	.	8a-\J	.	8c/ 8e-J	.	(16ee-\	.	.	.	.	.	.	.	.	.	.	.	.	.	.	.	.	.	.	.	.	.	.	.	.	.	.	.
.	.	.	.	.	.	.	16cc\JJ)	.	.	.	.	.	.	.	.	.	.	.	.	.	.	.	.	.	.	.	.	.	.	.	.	.	.	.
=16	=16	=16	=16	=16	=16	=16	=16	=16	=16	=16	=16	=16	=16	=16	=16	=16	=16	=16	=16	=16	=16	=16	=16	=16	=16	=16	=16	=16	=16	=16	=16	=16	=16	=16
!	!	!LO:DY:b:Bi:t=p&colon;	!	!LO:DY:b:Bi:t=p	!	!LO:DY:b:Bi:rj	!	!	!	!	!	!	!LO:LB:g=original	!	!	!	!	!	!	!	!	!	!	!LO:DY:b:Bi:t=p	!	!LO:DY:b:Bi:p	!	!	!	!	!	!LO:DY:b:Bi:t=p	!	!
8B-X\L	.	p	8b-X\L	p	8B-/ 8a-XL	p	16r	.	4B-\	-re-	4f\	-re-	4f\	-re-	4ddn\	-re-	2.ryy	2.ryy	2.r	.	2.r	.	2B-\	p	2dn\	p	2dd\	p	2aa-\	p	2bb-\	p	2dddn\	p
!	!	!	!	!	!	!	!	!LO:DY:b:Bi:	!	!	!	!	!	!	!	!	!	!	!	!	!	!	!	!	!	!	!	!	!	!	!	!	!	!
.	.	.	.	.	.	.	16aa-|\LL	p	.	.	.	.	.	.	.	.	.	.	.	.	.	.	.	.	.	.	.	.	.	.	.	.	.	.
8B-X\	.	.	8b-X\	.	8B-/ 8a-X	.	(16een\	.	.	.	.	.	.	.	.	.	.	.	.	.	.	.	.	.	.	.	.	.	.	.	.	.	.	.
.	.	.	.	.	.	.	16ff\JJ)	.	.	.	.	.	.	.	.	.	.	.	.	.	.	.	.	.	.	.	.	.	.	.	.	.	.	.
8B-X\	.	.	8b-X\	.	8B-/ 8a-X	.	(16cc#X\LL	.	4B-\	-re	4f\	-re	4f\	-re	4dd\	-re	.	.	.	.	.	.	.	.	.	.	.	.	.	.	.	.	.	.
.	.	.	.	.	.	.	16dd\)	.	.	.	.	.	.	.	.	.	.	.	.	.	.	.	.	.	.	.	.	.	.	.	.	.	.	.
8B-X\	.	.	8b-X\	.	8B-/ 8a-X	.	(16an\	.	.	.	.	.	.	.	.	.	.	.	.	.	.	.	.	.	.	.	.	.	.	.	.	.	.	.
.	.	.	.	.	.	.	16b-X\JJ)	.	.	.	.	.	.	.	.	.	.	.	.	.	.	.	.	.	.	.	.	.	.	.	.	.	.	.
8B-X\	.	.	8b-X\	.	8B-/ 8a-X	.	16g/LL	.	4r	.	4r	.	4r	.	4r	.	.	.	.	.	.	.	4r	.	4r	.	4r	.	4r	.	4r	.	4r	.
.	.	.	.	.	.	.	16a-X/	.	.	.	.	.	.	.	.	.	.	.	.	.	.	.	.	.	.	.	.	.	.	.	.	.	.	.
8B-X\J	.	.	8b-X\J	.	8B-/ 8a-XJ	.	16en/	.	.	.	.	.	.	.	.	.	.	.	.	.	.	.	.	.	.	.	.	.	.	.	.	.	.	.
.	.	.	.	.	.	.	16f/JJ	.	.	.	.	.	.	.	.	.	.	.	.	.	.	.	.	.	.	.	.	.	.	.	.	.	.	.
=17	=17	=17	=17	=17	=17	=17	=17	=17	=17	=17	=17	=17	=17	=17	=17	=17	=17	=17	=17	=17	=17	=17	=17	=17	=17	=17	=17	=17	=17	=17	=17	=17	=17	=17
!	!	!	!	!LO:DY:b:Bi:t=f	!	!LO:DY:b:Bi:t=f:rj	!	!LO:DY:b:Bi:rj	!	!	!	!	!	!	!	!	!	!	!	!	!	!	!	!	!LO:PB:g=original	!	!	!LO:DY:b:Bi:	!	!LO:DY:b:Bi:t=rf.	!	!LO:DY:b:Bi:t=f	!LO:N:vis=2	!LO:DY:b:Bi:t=f
*	*	*	*	*	*	*	*	*	*	*ij	*	*	*	*	*	*	*	*	*	*	*	*	*	*	*	*	*	*	*	*	*	*	*	*
8BB-/L	7 5 3	f	8B-/L	f	8B-/ 8a-L	f	16B-|/LL	f	2BB-/	Mi-	2f\	mi-	2a-X\	Mi-	2dd\	mi-	2.ryy	2.ryy	2.r	.	2.r	.	2.F\	rf	2.d\	rf	2.ff\	f	2.aa-X\	rf	2.ff\	f	2.ddd\	f
.	.	.	.	.	.	.	16f|/	.	.	.	.	.	.	.	.	.	.	.	.	.	.	.	.	.	.	.	.	.	.	.	.	.	.	.
8BB-/	.	.	8B-/	.	8B-/ 8a-	.	(16d/	.	.	.	.	.	.	.	.	.	.	.	.	.	.	.	.	.	.	.	.	.	.	.	.	.	.	.
.	.	.	.	.	.	.	16b-/JJ)	.	.	.	.	.	.	.	.	.	.	.	.	.	.	.	.	.	.	.	.	.	.	.	.	.	.	.
8BB-/	.	.	8B-/	.	8B-/ 8a-	.	16f|\LL	.	.	.	.	.	.	.	.	.	.	.	.	.	.	.	.	.	.	.	.	.	.	.	.	.	.	.
.	.	.	.	.	.	.	16dd|\	.	.	.	.	.	.	.	.	.	.	.	.	.	.	.	.	.	.	.	.	.	.	.	.	.	.	.
8BB-/	.	.	8B-/	.	8B-/ 8a-	.	(16b-\	.	.	.	.	.	.	.	.	.	.	.	.	.	.	.	.	.	.	.	.	.	.	.	.	.	.	.
.	.	.	.	.	.	.	16ff\JJ)	.	.	.	.	.	.	.	.	.	.	.	.	.	.	.	.	.	.	.	.	.	.	.	.	.	.	.
8BB-/	.	.	8B-/	.	8B-/ 8a-	.	16dd\LL	.	4BB-/	-se-	4f\	-se-	4a-\	-se-	4dd\	-se-	.	.	.	.	.	.	.	.	.	.	.	.	.	.	.	.	.	.
.	.	.	.	.	.	.	16aa-X\	.	.	.	.	.	.	.	.	.	.	.	.	.	.	.	.	.	.	.	.	.	.	.	.	.	.	.
8BB-/J	.	.	8B-/J	.	8B-/ 8a-J	.	16ff\	.	.	.	.	.	.	.	.	.	.	.	.	.	.	.	.	.	.	.	.	.	.	.	.	.	.	.
.	.	.	.	.	.	.	16dd\JJ	.	.	.	.	.	.	.	.	.	.	.	.	.	.	.	.	.	.	.	.	.	.	.	.	.	.	.
=18	=18	=18	=18	=18	=18	=18	=18	=18	=18	=18	=18	=18	=18	=18	=18	=18	=18	=18	=18	=18	=18	=18	=18	=18	=18	=18	=18	=18	=18	=18	=18	=18	=18	=18
!	!	!LO:DY:b:Bi:t=p&colon;	!	!LO:DY:b:Bi:t=p	!	!LO:DY:b:Bi:rj	!	!	!	!	!	!	!	!	!	!	!	!	!	!	!	!	!LO:LB:g=original	!LO:DY:b:Bi:t=p	!	!LO:DY:b:Bi:p	!	!	!	!	!	!LO:DY:b:Bi:t=p	!	!
8E-\L	3	p	8e-\L	p	8B-/ 8gL	p	16r	.	4E-\	-re-	4g\	-re-	4b-\	-re-	4ee-\	-re-	2.ryy	2.ryy	2.r	.	2.r	.	2G\	p	2e-\	p	2ee-X\	p	2gg\	p	2gg\	p	2eee-\	p
.	.	.	.	.	.	.	16bb-|\LL	.	.	.	.	.	.	.	.	.	.	.	.	.	.	.	.	.	.	.	.	.	.	.	.	.	.	.
8E-\	.	.	8e-\	.	8B-/ 8g	.	(16ff#X\	.	.	.	.	.	.	.	.	.	.	.	.	.	.	.	.	.	.	.	.	.	.	.	.	.	.	.
.	.	.	.	.	.	.	16gg\JJ)	.	.	.	.	.	.	.	.	.	.	.	.	.	.	.	.	.	.	.	.	.	.	.	.	.	.	.
8E-\	.	.	8e-\	.	8B-/ 8g	.	16dd\LL	.	4E-\	-re	4g\	-re	4b-\	-re	4ee-\	-re	.	.	.	.	.	.	.	.	.	.	.	.	.	.	.	.	.	.
*	*	*	*	*	*	*	*	*	*	*Xij	*	*Xij	*	*	*	*	*	*	*	*	*	*	*	*	*	*	*	*	*	*	*	*	*	*
.	.	.	.	.	.	.	16ee-X\	.	.	.	.	.	.	.	.	.	.	.	.	.	.	.	.	.	.	.	.	.	.	.	.	.	.	.
8E-\	.	.	8e-\	.	8B-/ 8g	.	16an\	.	.	.	.	.	.	.	.	.	.	.	.	.	.	.	.	.	.	.	.	.	.	.	.	.	.	.
.	.	.	.	.	.	.	16b-\JJ	.	.	.	.	.	.	.	.	.	.	.	.	.	.	.	.	.	.	.	.	.	.	.	.	.	.	.
8E-\	.	.	8e-\	.	8B-/ 8g	.	16f#X/LL	.	4r	.	4r	.	4r	.	4r	.	.	.	.	.	.	.	4r	.	4r	.	4r	.	4r	.	4r	.	4r	.
.	.	.	.	.	.	.	16g/	.	.	.	.	.	.	.	.	.	.	.	.	.	.	.	.	.	.	.	.	.	.	.	.	.	.	.
8E-\J	.	.	8e-\J	.	8B-/ 8gJ	.	16d/	.	.	.	.	.	.	.	.	.	.	.	.	.	.	.	.	.	.	.	.	.	.	.	.	.	.	.
.	.	.	.	.	.	.	16e-/JJ	.	.	.	.	.	.	.	.	.	.	.	.	.	.	.	.	.	.	.	.	.	.	.	.	.	.	.
=19	=19	=19	=19	=19	=19	=19	=19	=19	=19	=19	=19	=19	=19	=19	=19	=19	=19	=19	=19	=19	=19	=19	=19	=19	=19	=19	=19	=19	=19	=19	=19	=19	=19	=19
!	!	!LO:DY:b:Bi:t=for	!	!LO:DY:b:Bi:t=f	!	!LO:DY:b:Bi:t=f:rj	!	!LO:DY:b:Bi:rj	!	!	!	!	!	!	!LO:LB:g=original	!	!	!	!	!	!	!	!	!	!	!	!	!LO:DY:b:Bi:	!	!LO:DY:b:Bi:t=rf.	!	!LO:DY:b:Bi:t=f	!	!LO:DY:b:Bi:t=f
*	*	*	*	*	*	*	*	*	*	*	*	*	*	*ij	*	*	*	*	*	*	*	*	*	*	*	*	*	*	*	*	*	*	*	*
8E-\L	_	f	8e-\L	f	8B-/ 8gL	f	16B-|/LL	f	2E-\	Mi-	2B-\	mi-	2g\	Mi-	2ee-\	mi-	2.ryy	2.ryy	2.r	.	2.r	.	2.G\	rf	2.e-\	rf	2.ee-X\	f	2.gg\	rf	2.gg\	f	2.eee-\	f
.	.	.	.	.	.	.	16g|/	.	.	.	.	.	.	.	.	.	.	.	.	.	.	.	.	.	.	.	.	.	.	.	.	.	.	.
8E-\	.	.	8e-\	.	8B-/ 8g	.	(16e-/	.	.	.	.	.	.	.	.	.	.	.	.	.	.	.	.	.	.	.	.	.	.	.	.	.	.	.
.	.	.	.	.	.	.	16b-/JJ)	.	.	.	.	.	.	.	.	.	.	.	.	.	.	.	.	.	.	.	.	.	.	.	.	.	.	.
8E-\	.	.	8e-\	.	8B-/ 8g	.	16g|\LL	.	.	.	.	.	.	.	.	.	.	.	.	.	.	.	.	.	.	.	.	.	.	.	.	.	.	.
.	.	.	.	.	.	.	16ee-|\	.	.	.	.	.	.	.	.	.	.	.	.	.	.	.	.	.	.	.	.	.	.	.	.	.	.	.
8E-\	.	.	8e-\	.	8B-/ 8g	.	(16b-\	.	.	.	.	.	.	.	.	.	.	.	.	.	.	.	.	.	.	.	.	.	.	.	.	.	.	.
.	.	.	.	.	.	.	16gg\JJ)	.	.	.	.	.	.	.	.	.	.	.	.	.	.	.	.	.	.	.	.	.	.	.	.	.	.	.
!	!	!	!	!	!	!	!LO:LB:g=original	!	!	!	!	!	!	!	!	!	!	!	!	!	!	!	!	!	!	!	!	!	!	!	!	!	!	!
8E-\	.	.	8e-\	.	8B-/ 8g	.	16ee-|\LL	.	4E-\	-se-	4B-\	-se-	4g\	-se-	4ee-\	-se-	.	.	.	.	.	.	.	.	.	.	.	.	.	.	.	.	.	.
.	.	.	.	.	.	.	16bb-|\	.	.	.	.	.	.	.	.	.	.	.	.	.	.	.	.	.	.	.	.	.	.	.	.	.	.	.
8E-\J	.	.	8e-\J	.	8B-/ 8gJ	.	(16gg\	.	.	.	.	.	.	.	.	.	.	.	.	.	.	.	.	.	.	.	.	.	.	.	.	.	.	.
.	.	.	.	.	.	.	16ee-\JJ)	.	.	.	.	.	.	.	.	.	.	.	.	.	.	.	.	.	.	.	.	.	.	.	.	.	.	.
=20	=20	=20	=20	=20	=20	=20	=20	=20	=20	=20	=20	=20	=20	=20	=20	=20	=20	=20	=20	=20	=20	=20	=20	=20	=20	=20	=20	=20	=20	=20	=20	=20	=20	=20
*	*	*	*	*	*	*	*^	*	*	*	*	*	*	*	*	*	*	*	*	*	*	*	*	*	*	*	*	*	*	*	*	*	*	*
!	!	!LO:DY:b:Bi:t=p&colon;	!	!LO:DY:b:Bi:t=p	!	!LO:DY:b:Bi:rj	!	!	!LO:DY:b:Bi::rj	!LO:LB:g=original	!	!	!	!	!	!	!	!	!	!	!	!	!	!	!LO:DY:b:Bi:t=p	!	!LO:DY:b:Bi:p	!	!	!	!	!	!LO:DY:b:Bi:t=p	!	!LO:DY:b:Bi:t=p
8F\L	7 n	p	8f\L	p	8c/ 8anL	p	16rc	4ryy	p	4F\	-re-	4c\	-re-	4an\	-re-	4ee-\	-re-	2.ryy	2.ryy	2.r	.	2.r	.	2An\	p	2e-\	p	2cc\	p	2aan\	p	2aan\	p	2eee-\	p
.	.	.	.	.	.	.	16cccn\LL	.	.	.	.	.	.	.	.	.	.	.	.	.	.	.	.	.	.	.	.	.	.	.	.	.	.	.	.
8F\	.	.	8f\	.	8c/ 8an	.	(16gg#X\	.	.	.	.	.	.	.	.	.	.	.	.	.	.	.	.	.	.	.	.	.	.	.	.	.	.	.	.
.	.	.	.	.	.	.	16aan\JJ)	.	.	.	.	.	.	.	.	.	.	.	.	.	.	.	.	.	.	.	.	.	.	.	.	.	.	.	.
8F\	.	.	8f\	.	8c/ 8an	.	16een|\LL	4ryy	.	4F\	-re	4c\	-re	4a\	-re	4ee-\	-re	.	.	.	.	.	.	.	.	.	.	.	.	.	.	.	.	.	.
.	.	.	.	.	.	.	16ff|\	.	.	.	.	.	.	.	.	.	.	.	.	.	.	.	.	.	.	.	.	.	.	.	.	.	.	.	.
8F\	.	.	8f\	.	8c/ 8an	.	(16dd\	.	.	.	.	.	.	.	.	.	.	.	.	.	.	.	.	.	.	.	.	.	.	.	.	.	.	.	.
.	.	.	.	.	.	.	16ee-X\JJ)	.	.	.	.	.	.	.	.	.	.	.	.	.	.	.	.	.	.	.	.	.	.	.	.	.	.	.	.
8F\	.	.	8f\	.	8c/ 8an	.	16ryy	16bn\LL	.	4r	.	4r	.	4r	.	4r	.	.	.	.	.	.	.	4r	.	4r	.	4r	.	4r	.	4r	.	4r	.
!	!	!	!	!	!	!	!LO:TX:t=P:problem:uzupełniony dźwięk 16cc	!	!	!	!	!	!	!	!	!	!	!	!	!	!	!	!	!	!	!	!	!	!	!	!	!	!	!	!
.	.	.	.	.	.	.	16cc/	16ryy	.	.	.	.	.	.	.	.	.	.	.	.	.	.	.	.	.	.	.	.	.	.	.	.	.	.	.
8F\J	.	.	8f\J	.	8c/ 8anJ	.	16ryy	(16g#X\	.	.	.	.	.	.	.	.	.	.	.	.	.	.	.	.	.	.	.	.	.	.	.	.	.	.	.
.	.	.	.	.	.	.	16ryy	16an\JJ)	.	.	.	.	.	.	.	.	.	.	.	.	.	.	.	.	.	.	.	.	.	.	.	.	.	.	.
*	*	*	*	*	*	*	*v	*v	*	*	*	*	*	*	*	*	*	*	*	*	*	*	*	*	*	*	*	*	*	*	*	*	*	*	*
=21	=21	=21	=21	=21	=21	=21	=21	=21	=21	=21	=21	=21	=21	=21	=21	=21	=21	=21	=21	=21	=21	=21	=21	=21	=21	=21	=21	=21	=21	=21	=21	=21	=21	=21
!	!	!LO:DY:b:Bi:t=f.	!	!LO:DY:b:Bi:t=f	!LO:N:vis=2	!LO:DY:b:Bi:t=f:rj	!	!LO:DY:b:Bi:rj	!	!	!LO:LB:g=original	!	!	!	!	!	!	!	!	!	!	!	!	!	!	!	!	!LO:DY:b:Bi:	!	!LO:DY:b:Bi:t=rf.	!LO:SIC:v:s=2.aan	!LO:DY:b:Bi:t=f	!LO:N:vis=2	!LO:DY:b:Bi:t=f
*	*	*	*	*	*	*	*	*	*	*ij	*	*	*	*	*	*	*	*	*	*	*	*	*	*	*	*	*	*	*	*	*	*	*	*
8F\L	_ _	f	8f\L	f	8c/ 8e-L	f	16f|\LL	f	2F\	Mi-	2f\	mi-	2cc\	Mi-	2ee-\	mi-	2.ryy	2.ryy	2.r	.	2.r	.	2.c\	rf	2.e-\	rf	2.cc\	f	2.aan\	rf	2.aa-\	f	2.eee-\	f
.	.	.	.	.	.	.	16cc|\	.	.	.	.	.	.	.	.	.	.	.	.	.	.	.	.	.	.	.	.	.	.	.	.	.	.	.
8F\	.	.	8f\	.	8c/ 8e-	.	(16an\	.	.	.	.	.	.	.	.	.	.	.	.	.	.	.	.	.	.	.	.	.	.	.	.	.	.	.
.	.	.	.	.	.	.	16ff\JJ)	.	.	.	.	.	.	.	.	.	.	.	.	.	.	.	.	.	.	.	.	.	.	.	.	.	.	.
8F\	.	.	8f\	.	8c/ 8e-	.	16cc|\LL	.	.	.	.	.	.	.	.	.	.	.	.	.	.	.	.	.	.	.	.	.	.	.	.	.	.	.
.	.	.	.	.	.	.	16aan|\	.	.	.	.	.	.	.	.	.	.	.	.	.	.	.	.	.	.	.	.	.	.	.	.	.	.	.
8F\	.	.	8f\	.	8c/ 8e-	.	(16ff\	.	.	.	.	.	.	.	.	.	.	.	.	.	.	.	.	.	.	.	.	.	.	.	.	.	.	.
.	.	.	.	.	.	.	16ccc\JJ)	.	.	.	.	.	.	.	.	.	.	.	.	.	.	.	.	.	.	.	.	.	.	.	.	.	.	.
8F\	.	.	8f\	.	8c/ 8e-	.	16aa|\LL	.	4F\	-se-	4f\	-se-	4cc\	-se-	4ee-\	-se-	.	.	.	.	.	.	.	.	.	.	.	.	.	.	.	.	.	.
.	.	.	.	.	.	.	16eee-|\	.	.	.	.	.	.	.	.	.	.	.	.	.	.	.	.	.	.	.	.	.	.	.	.	.	.	.
8F\J	.	.	8f\J	.	8c/ 8e-J	.	(16ccc\	.	.	.	.	.	.	.	.	.	.	.	.	.	.	.	.	.	.	.	.	.	.	.	.	.	.	.
.	.	.	.	.	.	.	16aa\JJ)	.	.	.	.	.	.	.	.	.	.	.	.	.	.	.	.	.	.	.	.	.	.	.	.	.	.	.
=22	=22	=22	=22	=22	=22	=22	=22	=22	=22	=22	=22	=22	=22	=22	=22	=22	=22	=22	=22	=22	=22	=22	=22	=22	=22	=22	=22	=22	=22	=22	=22	=22	=22	=22
!	!	!LO:DY:b:Bi:t=p&colon;	!	!LO:DY:b:Bi:t=p	!	!LO:DY:b:Bi:rj	!	!LO:DY:b:Bi:	!	!	!	!	!	!	!	!	!	!	!	!	!	!	!	!	!	!LO:DY:b:Bi:p	!	!	!	!	!	!LO:DY:b:Bi:t=p	!	!LO:DY:b:Bi:t=p
8B-\L	3	p	8b-\L	p	8d/ 8fL	p	16r	p	4B-X\	-re-	4f\	-re-	4b-\	-re-	4dd\	-re-	2.ryy	2.ryy	2.r	.	2.r	.	2B-\	.	2d\	p	2dd\	p	2bb-\	p	2bb-\	p	2ddd\	p
.	.	.	.	.	.	.	16ff|\LL	.	.	.	.	.	.	.	.	.	.	.	.	.	.	.	.	.	.	.	.	.	.	.	.	.	.	.
8B-\	.	.	8b-\	.	8d/ 8f	.	(16cc#X\	.	.	.	.	.	.	.	.	.	.	.	.	.	.	.	.	.	.	.	.	.	.	.	.	.	.	.
.	.	.	.	.	.	.	16dd\JJ)	.	.	.	.	.	.	.	.	.	.	.	.	.	.	.	.	.	.	.	.	.	.	.	.	.	.	.
8B-\	.	.	8b-\	.	8d/ 8f	.	16an|/LL	.	4B-\	-re	4f\	-re	4b-\	-re	4dd\	-re	.	.	.	.	.	.	.	.	.	.	.	.	.	.	.	.	.	.
*	*	*	*	*	*	*	*	*	*	*	*	*	*	*Xij	*	*	*	*	*	*	*	*	*	*	*	*	*	*	*	*	*	*	*	*
.	.	.	.	.	.	.	16b-|/	.	.	.	.	.	.	.	.	.	.	.	.	.	.	.	.	.	.	.	.	.	.	.	.	.	.	.
8B-\	.	.	8b-\	.	8d/ 8f	.	(16en/	.	.	.	.	.	.	.	.	.	.	.	.	.	.	.	.	.	.	.	.	.	.	.	.	.	.	.
.	.	.	.	.	.	.	16f/JJ)	.	.	.	.	.	.	.	.	.	.	.	.	.	.	.	.	.	.	.	.	.	.	.	.	.	.	.
8B-\	.	.	8b-\	.	8d/ 8f	.	16c#X|/LL	.	4r	.	4r	.	4r	.	4r	.	.	.	.	.	.	.	4r	.	4r	.	4r	.	4r	.	4r	.	4r	.
.	.	.	.	.	.	.	16d|/	.	.	.	.	.	.	.	.	.	.	.	.	.	.	.	.	.	.	.	.	.	.	.	.	.	.	.
8B-\J	.	.	8b-\J	.	8d/ 8fJ	.	(16An/	.	.	.	.	.	.	.	.	.	.	.	.	.	.	.	.	.	.	.	.	.	.	.	.	.	.	.
.	.	.	.	.	.	.	16B-X/JJ)	.	.	.	.	.	.	.	.	.	.	.	.	.	.	.	.	.	.	.	.	.	.	.	.	.	.	.
=23	=23	=23	=23	=23	=23	=23	=23	=23	=23	=23	=23	=23	=23	=23	=23	=23	=23	=23	=23	=23	=23	=23	=23	=23	=23	=23	=23	=23	=23	=23	=23	=23	=23	=23
!	!	!	!	!LO:DY:b:Bi:t=f	!	!LO:DY:b:Bi:t=f:rj	!	!LO:DY:b:Bi:rj	!	!	!	!	!	!	!	!	!	!	!	!	!	!	!	!	!	!	!	!LO:DY:b:Bi:	!LO:LB:g=original	!LO:DY:b:Bi:t=rf.	!	!LO:DY:b:Bi:t=f	!LO:N:vis=2	!LO:DY:b:Bi:t=f
*	*	*	*	*	*	*	*	*	*	*	*	*ij	*	*	*	*	*	*	*	*	*	*	*	*	*	*	*	*	*	*	*	*	*	*
8B-\L	3	f	8b-\L	f	8d/ 8fL	f	16B-|/LL	f	2B-\	Mi-	2f\	mi-	2b-\	mi-	2dd\	mi-	2.ryy	2.ryy	2.r	.	2.r	.	2.B-\	rf	2.d\	rf	2.dd\	f	2.bb-X\	rf	2.bb-\	f	2.ddd\	f
.	.	.	.	.	.	.	16f|/	.	.	.	.	.	.	.	.	.	.	.	.	.	.	.	.	.	.	.	.	.	.	.	.	.	.	.
8B-\	.	.	8b-\	.	8d/ 8f	.	(16d/	.	.	.	.	.	.	.	.	.	.	.	.	.	.	.	.	.	.	.	.	.	.	.	.	.	.	.
.	.	.	.	.	.	.	16b-/JJ)	.	.	.	.	.	.	.	.	.	.	.	.	.	.	.	.	.	.	.	.	.	.	.	.	.	.	.
8B-\	.	.	8b-\	.	8d/ 8f	.	16f|\LL	.	.	.	.	.	.	.	.	.	.	.	.	.	.	.	.	.	.	.	.	.	.	.	.	.	.	.
.	.	.	.	.	.	.	16dd|\	.	.	.	.	.	.	.	.	.	.	.	.	.	.	.	.	.	.	.	.	.	.	.	.	.	.	.
8B-\	.	.	8b-\	.	8d/ 8f	.	(16b-\	.	.	.	.	.	.	.	.	.	.	.	.	.	.	.	.	.	.	.	.	.	.	.	.	.	.	.
.	.	.	.	.	.	.	16ff\JJ)	.	.	.	.	.	.	.	.	.	.	.	.	.	.	.	.	.	.	.	.	.	.	.	.	.	.	.
!	!	!	!	!	!	!	!LO:LB:g=original	!	!	!	!	!	!	!	!	!	!	!	!	!	!	!	!	!	!	!	!	!	!	!	!	!	!	!
8B-\	.	.	8b-\	.	8d/ 8f	.	16dd|\LL	.	4B-\	-se-	4f\	-se-	4b-\	-se-	4dd\	-se-	.	.	.	.	.	.	.	.	.	.	.	.	.	.	.	.	.	.
.	.	.	.	.	.	.	16bb-|\	.	.	.	.	.	.	.	.	.	.	.	.	.	.	.	.	.	.	.	.	.	.	.	.	.	.	.
8B-\J	.	.	8b-\J	.	8d/ 8fJ	.	(16ff\	.	.	.	.	.	.	.	.	.	.	.	.	.	.	.	.	.	.	.	.	.	.	.	.	.	.	.
.	.	.	.	.	.	.	16ddd\JJ)	.	.	.	.	.	.	.	.	.	.	.	.	.	.	.	.	.	.	.	.	.	.	.	.	.	.	.
=24	=24	=24	=24	=24	=24	=24	=24	=24	=24	=24	=24	=24	=24	=24	=24	=24	=24	=24	=24	=24	=24	=24	=24	=24	=24	=24	=24	=24	=24	=24	=24	=24	=24	=24
!	!	!LO:DY:b:Bi:t=p&colon;	!	!LO:DY:b:Bi:t=p	!	!LO:DY:b:Bi:rj:t=p	!	!LO:DY:b:Bi:	!	!	!	!	!LO:LB:g=original	!	!	!	!	!	!	!	!	!	!	!LO:DY:b:Bi:t=p	!	!LO:DY:b:Bi:p	!	!	!	!	!	!LO:DY:b:Bi:t=p	!LO:LB:g=original	!LO:DY:b:Bi:t=p
8An\L	5 3	p	8g\L	p	8c#X/ 8enL	p	16r	p	4An\	-re-	4en\	-re-	4cc#X\	-re-	4een\	-re-	2.ryy	2.ryy	2.r	.	2.r	.	2c#X\	p	2en\	p	2cc#X\	p	2aan\	p	2ccc#X\	p	2eeen\	p
.	.	.	.	.	.	.	16ccc#X|\LL	.	.	.	.	.	.	.	.	.	.	.	.	.	.	.	.	.	.	.	.	.	.	.	.	.	.	.
8An\	.	.	8g\	.	8c#X/ 8en	.	(16gg#X\	.	.	.	.	.	.	.	.	.	.	.	.	.	.	.	.	.	.	.	.	.	.	.	.	.	.	.
.	.	.	.	.	.	.	16aan\JJ)	.	.	.	.	.	.	.	.	.	.	.	.	.	.	.	.	.	.	.	.	.	.	.	.	.	.	.
8An\	.	.	8g\	.	8c#X/ 8en	.	(16dd#X\LL	.	4A\	-re	4e\	-re	4cc#\	-re	4ee\	-re	.	.	.	.	.	.	.	.	.	.	.	.	.	.	.	.	.	.
!	!	!	!	!	!	!	!LO:SIC:v:s=16een	!	!	!	!	!	!	!	!	!	!	!	!	!	!	!	!	!	!	!	!	!	!	!	!	!	!	!
.	.	.	.	.	.	.	16ee-\)	.	.	.	.	.	.	.	.	.	.	.	.	.	.	.	.	.	.	.	.	.	.	.	.	.	.	.
8An\	.	.	8g\	.	8c#X/ 8en	.	(16bn\	.	.	.	.	.	.	.	.	.	.	.	.	.	.	.	.	.	.	.	.	.	.	.	.	.	.	.
.	.	.	.	.	.	.	16cc#X\JJ)	.	.	.	.	.	.	.	.	.	.	.	.	.	.	.	.	.	.	.	.	.	.	.	.	.	.	.
!	!	!	!	!	!	!	!	!	!	!	!	!	!	!	!	!	!	!	!	!	!	!	!	!	!LO:TX:t=P:problem:kreska taktowa na 4r	!	!	!	!	!	!	!	!	!
8An\	.	.	8g\	.	8c#X/ 8en	.	16g#X/LL	.	4r	.	4r	.	4r	.	4r	.	.	.	.	.	.	.	4r	.	4r	.	4r	.	4r	.	4r	.	4r	.
.	.	.	.	.	.	.	16an/	.	.	.	.	.	.	.	.	.	.	.	.	.	.	.	.	.	.	.	.	.	.	.	.	.	.	.
8An\J	.	.	8g\J	.	8c#X/ 8enJ	.	16d#X/	.	.	.	.	.	.	.	.	.	.	.	.	.	.	.	.	.	.	.	.	.	.	.	.	.	.	.
.	.	.	.	.	.	.	16en/JJ	.	.	.	.	.	.	.	.	.	.	.	.	.	.	.	.	.	.	.	.	.	.	.	.	.	.	.
=25	=25	=25	=25	=25	=25	=25	=25	=25	=25	=25	=25	=25	=25	=25	=25	=25	=25	=25	=25	=25	=25	=25	=25	=25	=25	=25	=25	=25	=25	=25	=25	=25	=25	=25
!	!	!	!	!	!LO:SIC:v:s=2.en	!	!	!	!	!	!	!	!	!	!	!	!	!	!	!	!	!	!	!	!	!	!	!	!	!	!	!	!LO:TX:t=P:problem:p poprawione na f	!
!LO:LB:g=original	!	!LO:DY:b:Bi:t=for	!	!LO:DY:b:Bi:t=f	!LO:SIC:v:s=2.c#	!LO:DY:b:Bi:t=f:rj	!	!LO:DY:b:Bi:rj	!LO:SIC:v:s=2An	!	!	!	!	!	!	!	!	!	!	!	!	!	!	!	!	!	!	!LO:DY:b:Bi:	!	!LO:DY:b:Bi:t=rf.	!	!LO:DY:b:Bi:t=f	!LO:N:vis=2	!LO:DY:b:Bi:t=f
8An\L	5 3	f	8gn\L	f	8c/ 8e-L	f	16c#X|/LL	f	2A-\	Mi-	2c#X\	mi-	2g\	Mi-	2een\	mi-	2.ryy	2.ryy	2.r	.	2.r	.	2.G\	rf	2.e-\	rf	2.ee-\	f	2.gg\	rf	2.gg\	f	2.eee-\	f
.	.	.	.	.	.	.	16an|/	.	.	.	.	.	.	.	.	.	.	.	.	.	.	.	.	.	.	.	.	.	.	.	.	.	.	.
8An\	.	.	8gn\	.	8c/ 8e-	.	(16en/	.	.	.	.	.	.	.	.	.	.	.	.	.	.	.	.	.	.	.	.	.	.	.	.	.	.	.
.	.	.	.	.	.	.	16cc#X/JJ)	.	.	.	.	.	.	.	.	.	.	.	.	.	.	.	.	.	.	.	.	.	.	.	.	.	.	.
8An\	.	.	8gn\	.	8c/ 8e-	.	16a|\LL	.	.	.	.	.	.	.	.	.	.	.	.	.	.	.	.	.	.	.	.	.	.	.	.	.	.	.
.	.	.	.	.	.	.	16een|\	.	.	.	.	.	.	.	.	.	.	.	.	.	.	.	.	.	.	.	.	.	.	.	.	.	.	.
8An\	.	.	8gn\	.	8c/ 8e-	.	(16cc#X\	.	.	.	.	.	.	.	.	.	.	.	.	.	.	.	.	.	.	.	.	.	.	.	.	.	.	.
.	.	.	.	.	.	.	16aan\JJ)	.	.	.	.	.	.	.	.	.	.	.	.	.	.	.	.	.	.	.	.	.	.	.	.	.	.	.
!	!	!	!	!	!	!	!	!	!LO:SIC:v:s=4An	!	!	!	!	!	!	!	!	!	!	!	!	!	!	!	!	!	!	!	!	!	!	!	!	!
8An\	.	.	8gn\	.	8c/ 8e-	.	16ee|\LL	.	4A-\	-se-	4c#\	-se-	4g\	-se-	4ee\	-se-	.	.	.	.	.	.	.	.	.	.	.	.	.	.	.	.	.	.
.	.	.	.	.	.	.	16ccc#X|\	.	.	.	.	.	.	.	.	.	.	.	.	.	.	.	.	.	.	.	.	.	.	.	.	.	.	.
8An\J	.	.	8gn\J	.	8c/ 8e-J	.	(16aan\	.	.	.	.	.	.	.	.	.	.	.	.	.	.	.	.	.	.	.	.	.	.	.	.	.	.	.
!	!	!	!	!	!	!	!LO:SIC:v:s=16eeen	!	!	!	!	!	!	!	!	!	!	!	!	!	!	!	!	!	!	!	!	!	!	!	!	!	!	!
.	.	.	.	.	.	.	16eee-\JJ)	.	.	.	.	.	.	.	.	.	.	.	.	.	.	.	.	.	.	.	.	.	.	.	.	.	.	.
=26	=26	=26	=26	=26	=26	=26	=26	=26	=26	=26	=26	=26	=26	=26	=26	=26	=26	=26	=26	=26	=26	=26	=26	=26	=26	=26	=26	=26	=26	=26	=26	=26	=26	=26
*	*	*	*	*	*	*	*^	*	*	*	*	*	*	*	*	*	*	*	*	*	*	*	*	*	*	*	*	*	*	*	*	*	*	*
!	!	!LO:DY:b:Bi:t=p&colon;:rj	!	!LO:DY:b:Bi:t=p	!LO:N:vis=2	!LO:DY:b:Bi:rj	!LO:TX:t=P:problem:brak 16r	!	!	!	!	!	!	!	!	!	!	!	!	!	!	!	!	!	!LO:DY:b:Bi:t=p	!	!LO:DY:b:Bi:p	!	!	!	!	!	!LO:DY:b:Bi:t=p	!	!LO:DY:b:Bi:t=p
8D\L	n3	p	8fn\L	p	8An/ 8fnL	p	16rcyy	4ryy	.	4d\	-re-	4d\	-re-	4an\	-re-	4ffn\	-re-	2.ryy	2.ryy	2.r	.	2.r	.	2F\	p	2d\	p	2dd\	p	2ffn\	p	2ffn\	p	2ddd\	p
.	.	.	.	.	.	.	16fffn\LL	.	.	.	.	.	.	.	.	.	.	.	.	.	.	.	.	.	.	.	.	.	.	.	.	.	.	.	.
8D\	.	.	8fn\	.	8An/ 8fn	.	16ccc#X\	.	.	.	.	.	.	.	.	.	.	.	.	.	.	.	.	.	.	.	.	.	.	.	.	.	.	.	.
.	.	.	.	.	.	.	16ddd\JJ	.	.	.	.	.	.	.	.	.	.	.	.	.	.	.	.	.	.	.	.	.	.	.	.	.	.	.	.
8D\	.	.	8fn\	.	8An/ 8fn	.	16gg#X\LL	4ryy	.	4D/	-re	4d\	-re	4a\	-re	4ff\	-re	.	.	.	.	.	.	.	.	.	.	.	.	.	.	.	.	.	.
.	.	.	.	.	.	.	16aan\	.	.	.	.	.	.	.	.	.	.	.	.	.	.	.	.	.	.	.	.	.	.	.	.	.	.	.	.
8D\	.	.	8fn\	.	8An/ 8fn	.	16een\	.	.	.	.	.	.	.	.	.	.	.	.	.	.	.	.	.	.	.	.	.	.	.	.	.	.	.	.
.	.	.	.	.	.	.	16ffn\JJ	.	.	.	.	.	.	.	.	.	.	.	.	.	.	.	.	.	.	.	.	.	.	.	.	.	.	.	.
8D\	.	.	8fn\	.	8An/ 8fn	.	16ryy	16cc#X\LL	.	4r	.	4r	.	4r	.	4r	.	.	.	.	.	.	.	4r	.	4r	.	4r	.	4r	.	4r	.	4r	.
!	!	!	!	!	!	!	!LO:TX:t=P:problem:dźwięk 16dd uzupełniony nad 16g#	!	!	!	!	!	!	!	!	!	!	!	!	!	!	!	!	!	!	!	!	!	!	!	!	!	!	!	!
.	.	.	.	.	.	.	16ryy	16ryy	.	.	.	.	.	.	.	.	.	.	.	.	.	.	.	.	.	.	.	.	.	.	.	.	.	.	.
8D\J	.	.	8fn\J	.	8An/ 8fnJ	.	16dd/	16g#X\	.	.	.	.	.	.	.	.	.	.	.	.	.	.	.	.	.	.	.	.	.	.	.	.	.	.	.
.	.	.	.	.	.	.	16ryy	16an\JJ	.	.	.	.	.	.	.	.	.	.	.	.	.	.	.	.	.	.	.	.	.	.	.	.	.	.	.
*	*	*	*	*	*	*	*v	*v	*	*	*	*	*	*	*	*	*	*	*	*	*	*	*	*	*	*	*	*	*	*	*	*	*	*	*
=27	=27	=27	=27	=27	=27	=27	=27	=27	=27	=27	=27	=27	=27	=27	=27	=27	=27	=27	=27	=27	=27	=27	=27	=27	=27	=27	=27	=27	=27	=27	=27	=27	=27	=27
!	!	!	!	!	!LO:N:vis=2	!LO:DY:b:Bi:t=f:rj	!LO:LB:g=original	!LO:DY:b:Bi:t=f.:rj	!LO:PB:g=original	!	!	!	!	!	!	!	!	!	!	!	!	!	!	!	!	!	!	!	!	!	!	!	!	!
!	!	!LO:DY:b:Bi:t=f.:rj	!	!LO:DY:b:Bi:t=f	!LO:LB:g=original	!	!	!	!	!	!	!	!	!	!	!	!	!	!	!	!	!	!	!	!LO:LB:g=original	!	!	!LO:DY:b:Bi:	!	!LO:DY:b:Bi:t=rf.	!	!LO:DY:b:Bi:t=f	!	!LO:DY:b:Bi:t=f
*	*	*	*	*	*	*	*	*	*	*Xij	*	*	*	*ij	*	*	*	*	*	*	*	*	*	*	*	*	*	*	*	*	*	*	*	*
8D\L	_	f	8d\L	f	8An/ 8fL	f	16d|/LL	f	2D\	Mi-	2d\	mi-	2an\	Mi-	2ff\	mi-	2.ryy	2.ryy	2.r	.	2.r	.	2.d\	rf	2.f\	.	2.dd\	f	2.ff\	rf	2.ff\	f	2.ddd\	f
!	!	!	!	!	!	!	!LO:SIC:v:s=16an	!	!	!	!	!	!	!	!	!	!	!	!	!	!	!	!	!	!	!	!	!	!	!	!	!	!	!
.	.	.	.	.	.	.	16a-|/	.	.	.	.	.	.	.	.	.	.	.	.	.	.	.	.	.	.	.	.	.	.	.	.	.	.	.
8D\	.	.	8d\	.	8An/ 8f	.	(16fn/	.	.	.	.	.	.	.	.	.	.	.	.	.	.	.	.	.	.	.	.	.	.	.	.	.	.	.
.	.	.	.	.	.	.	16dd/JJ)	.	.	.	.	.	.	.	.	.	.	.	.	.	.	.	.	.	.	.	.	.	.	.	.	.	.	.
!	!	!	!	!	!	!	!LO:SIC:v:s=16an	!	!	!	!	!	!	!	!	!	!	!	!	!	!	!	!	!	!	!	!	!	!	!	!	!	!	!
8D\	.	.	8d\	.	8An/ 8f	.	16a-|\LL	.	.	.	.	.	.	.	.	.	.	.	.	.	.	.	.	.	.	.	.	.	.	.	.	.	.	.
.	.	.	.	.	.	.	16ffn|\	.	.	.	.	.	.	.	.	.	.	.	.	.	.	.	.	.	.	.	.	.	.	.	.	.	.	.
!	!	!	!	!	!	!	!LO:SIC:v:s=16dd	!	!	!	!	!	!	!	!	!	!	!	!	!	!	!	!	!	!	!	!	!	!	!	!	!	!	!
8D\	.	.	8d\	.	8An/ 8f	.	(16cc|\	.	.	.	.	.	.	.	.	.	.	.	.	.	.	.	.	.	.	.	.	.	.	.	.	.	.	.
.	.	.	.	.	.	.	16aan\JJ)	.	.	.	.	.	.	.	.	.	.	.	.	.	.	.	.	.	.	.	.	.	.	.	.	.	.	.
8D\	.	.	8d\	.	8An/ 8f	.	16ff|\LL	.	4D\	-se-	4d\	-se-	4a\	-se-	4ff\	-se-	.	.	.	.	.	.	.	.	.	.	.	.	.	.	.	.	.	.
.	.	.	.	.	.	.	16ddd|\	.	.	.	.	.	.	.	.	.	.	.	.	.	.	.	.	.	.	.	.	.	.	.	.	.	.	.
8D\J	.	.	8d\J	.	8An/ 8fJ	.	(16aa\	.	.	.	.	.	.	.	.	.	.	.	.	.	.	.	.	.	.	.	.	.	.	.	.	.	.	.
.	.	.	.	.	.	.	16fffn\JJ)	.	.	.	.	.	.	.	.	.	.	.	.	.	.	.	.	.	.	.	.	.	.	.	.	.	.	.
=28	=28	=28	=28	=28	=28	=28	=28	=28	=28	=28	=28	=28	=28	=28	=28	=28	=28	=28	=28	=28	=28	=28	=28	=28	=28	=28	=28	=28	=28	=28	=28	=28	=28	=28
!	!	!LO:DY:b:Bi:t=p&colon;:rj	!	!LO:DY:b:Bi:t=p	!	!LO:DY:b:Bi:rj	!	!	!	!	!	!	!LO:SIC:v:s=4an	!	!	!	!	!	!	!	!	!	!LO:LB:g=original	!LO:DY:b:Bi:t=p	!LO:SIC:v:s=2e-	!	!	!	!	!	!	!LO:DY:b:Bi:t=p	!	!LO:DY:b:Bi:t=p
8F\L	-7 5 3	p	8an\L	p	8c/ 8e-XL	p	16r	.	4Fn\	-re-	4cn\	-re-	4a-\	-re-	4ee-X\	-re-	2.ryy	2.ryy	2.r	.	2.r	.	2cn\	p	2g-X\	.	2ccn\	p	2ee-X\	p	2ff\	p	2eee-X\	p
!	!	!	!	!	!	!	!	!LO:DY:b:Bi:	!	!	!	!	!	!	!	!	!	!	!	!	!	!	!	!	!	!	!	!	!	!	!	!	!	!
.	.	.	.	.	.	.	16eee-X|\LL	p	.	.	.	.	.	.	.	.	.	.	.	.	.	.	.	.	.	.	.	.	.	.	.	.	.	.
8F\	.	.	8an\	.	8c/ 8e-X	.	(16bbn\	.	.	.	.	.	.	.	.	.	.	.	.	.	.	.	.	.	.	.	.	.	.	.	.	.	.	.
.	.	.	.	.	.	.	16ccc\JJ)	.	.	.	.	.	.	.	.	.	.	.	.	.	.	.	.	.	.	.	.	.	.	.	.	.	.	.
!	!	!	!	!	!	!	!	!	!	!	!	!	!LO:SIC:v:s=4an	!	!	!	!	!	!	!	!	!	!	!	!	!	!	!	!	!	!	!	!	!
8F\	.	.	8an\	.	8c/ 8e-X	.	16gg#X|\LL	.	4F\	-re	4c\	-re	4a-\	-re	4ee-\	-re	.	.	.	.	.	.	.	.	.	.	.	.	.	.	.	.	.	.
*	*	*	*	*	*	*	*	*	*	*ij	*	*	*	*	*	*Xij	*	*	*	*	*	*	*	*	*	*	*	*	*	*	*	*	*	*
.	.	.	.	.	.	.	16aan|\	.	.	.	.	.	.	.	.	.	.	.	.	.	.	.	.	.	.	.	.	.	.	.	.	.	.	.
8F\	.	.	8an\	.	8c/ 8e-X	.	(16een\	.	.	.	.	.	.	.	.	.	.	.	.	.	.	.	.	.	.	.	.	.	.	.	.	.	.	.
.	.	.	.	.	.	.	16ff\JJ)	.	.	.	.	.	.	.	.	.	.	.	.	.	.	.	.	.	.	.	.	.	.	.	.	.	.	.
8F\	.	.	8an\	.	8c/ 8e-X	.	(16dd|\LL	.	4r	.	4r	.	4r	.	4r	.	.	.	.	.	.	.	4r	.	4r	.	4r	.	4r	.	4r	.	4r	.
.	.	.	.	.	.	.	16ee-X\)	.	.	.	.	.	.	.	.	.	.	.	.	.	.	.	.	.	.	.	.	.	.	.	.	.	.	.
8F\J	.	.	8an\J	.	8c/ 8e-XJ	.	(16bn\	.	.	.	.	.	.	.	.	.	.	.	.	.	.	.	.	.	.	.	.	.	.	.	.	.	.	.
.	.	.	.	.	.	.	16cc\JJ)	.	.	.	.	.	.	.	.	.	.	.	.	.	.	.	.	.	.	.	.	.	.	.	.	.	.	.
=29	=29	=29	=29	=29	=29	=29	=29	=29	=29	=29	=29	=29	=29	=29	=29	=29	=29	=29	=29	=29	=29	=29	=29	=29	=29	=29	=29	=29	=29	=29	=29	=29	=29	=29
!	!	!	!LO:LB:g=original	!	!	!	!	!	!	!	!	!	!	!	!	!	!	!	!	!	!	!	!	!	!	!	!	!	!	!	!	!	!	!
!	!	!LO:DY:b:Bi:t=f.:rj	!LO:SIC:v:s=2.an	!LO:DY:b:Bi:t=f	!LO:N:n=1:vis=2	!LO:DY:b:Bi:t=f:rj	!	!LO:DY:b:Bi:t=f.:rj	!	!	!	!	!	!	!LO:PB:g=original	!	!	!	!	!	!	!	!	!	!	!	!	!LO:DY:b:Bi:	!	!LO:DY:b:Bi:t=rf.	!	!LO:DY:b:Bi:t=f	!	!LO:DY:b:Bi:t=f
8F\L	5 3	f	8a-\L	f	8c/ 8e-L	f	16f|\LL	f	2F\	Mi-	2c\	mi-	2an\	Mi-	2ee-\	Mi-	2.ryy	2.ryy	2.r	.	2.r	.	2.c\	rf	2.e-\	.	2.cc\	f	2.ee-X\	rf	2.ccc\	f	2.eee-\	f
.	.	.	.	.	.	.	16cc|\	.	.	.	.	.	.	.	.	.	.	.	.	.	.	.	.	.	.	.	.	.	.	.	.	.	.	.
8F\	.	.	8a-\	.	8c/ 8e-	.	(16an\	.	.	.	.	.	.	.	.	.	.	.	.	.	.	.	.	.	.	.	.	.	.	.	.	.	.	.
.	.	.	.	.	.	.	16ee-X\JJ)	.	.	.	.	.	.	.	.	.	.	.	.	.	.	.	.	.	.	.	.	.	.	.	.	.	.	.
8F\	.	.	8a-\	.	8c/ 8e-	.	16cc|\LL	.	.	.	.	.	.	.	.	.	.	.	.	.	.	.	.	.	.	.	.	.	.	.	.	.	.	.
.	.	.	.	.	.	.	16aan|\	.	.	.	.	.	.	.	.	.	.	.	.	.	.	.	.	.	.	.	.	.	.	.	.	.	.	.
8F\	.	.	8a-\	.	8c/ 8e-	.	(16ff\	.	.	.	.	.	.	.	.	.	.	.	.	.	.	.	.	.	.	.	.	.	.	.	.	.	.	.
.	.	.	.	.	.	.	16ccc\JJ)	.	.	.	.	.	.	.	.	.	.	.	.	.	.	.	.	.	.	.	.	.	.	.	.	.	.	.
8F\	.	.	8a-\	.	8c/ 8e-	.	16aa\LL	.	4F\	-se-	4c\	-se-	4a\	-se-	4ee-\	-se-	.	.	.	.	.	.	.	.	.	.	.	.	.	.	.	.	.	.
.	.	.	.	.	.	.	16eee-X\	.	.	.	.	.	.	.	.	.	.	.	.	.	.	.	.	.	.	.	.	.	.	.	.	.	.	.
8F\J	.	.	8a-\J	.	8c/ 8e-J	.	16ccc\	.	.	.	.	.	.	.	.	.	.	.	.	.	.	.	.	.	.	.	.	.	.	.	.	.	.	.
.	.	.	.	.	.	.	16aa\JJ	.	.	.	.	.	.	.	.	.	.	.	.	.	.	.	.	.	.	.	.	.	.	.	.	.	.	.
=30	=30	=30	=30	=30	=30	=30	=30	=30	=30	=30	=30	=30	=30	=30	=30	=30	=30	=30	=30	=30	=30	=30	=30	=30	=30	=30	=30	=30	=30	=30	=30	=30	=30	=30
!	!	!LO:DY:b:Bi:t=p.	!	!LO:DY:b:Bi:t=p	!	!LO:DY:b:Bi:rj	!	!LO:DY:b:Bi:	!	!	!	!	!	!	!	!	!	!	!	!	!	!	!	!LO:DY:b:Bi:t=p	!	!	!	!	!	!	!	!LO:DY:b:Bi:t=p	!	!
8B-\L	3	p	8b-X\L	p	8d/ 8fL	p	16r	p	4B-X\	-re-	4d\	-re-	4b-X\	-re-	4dd\	-re-	2.ryy	2.ryy	2.r	.	2.r	.	2B-\	p	2d\	.	2b-X\	p	2dd\	p	2bb-X\	p	2ddd\	.
.	.	.	.	.	.	.	16fff|\LL	.	.	.	.	.	.	.	.	.	.	.	.	.	.	.	.	.	.	.	.	.	.	.	.	.	.	.
8B-\	.	.	8b-X\	.	8d/ 8f	.	(16ccc#X\	.	.	.	.	.	.	.	.	.	.	.	.	.	.	.	.	.	.	.	.	.	.	.	.	.	.	.
.	.	.	.	.	.	.	16ddd\JJ)	.	.	.	.	.	.	.	.	.	.	.	.	.	.	.	.	.	.	.	.	.	.	.	.	.	.	.
8B-\	.	.	8b-X\	.	8d/ 8f	.	(16aan\LL	.	4B-\	-re	4d\	-re	4b-\	-re	4dd\	-re	.	.	.	.	.	.	.	.	.	.	.	.	.	.	.	.	.	.
*	*	*	*	*	*	*	*	*	*	*Xij	*	*Xij	*	*Xij	*	*	*	*	*	*	*	*	*	*	*	*	*	*	*	*	*	*	*	*
.	.	.	.	.	.	.	16bb-\)	.	.	.	.	.	.	.	.	.	.	.	.	.	.	.	.	.	.	.	.	.	.	.	.	.	.	.
8B-\	.	.	8b-X\	.	8d/ 8f	.	(16een\	.	.	.	.	.	.	.	.	.	.	.	.	.	.	.	.	.	.	.	.	.	.	.	.	.	.	.
.	.	.	.	.	.	.	16ff\JJ)	.	.	.	.	.	.	.	.	.	.	.	.	.	.	.	.	.	.	.	.	.	.	.	.	.	.	.
!	!	!	!	!	!	!	!LO:LB:g=original	!	!	!	!	!	!	!	!	!	!	!	!	!	!	!	!	!	!	!	!	!	!	!	!	!	!	!
8B-\	.	.	8b-X\	.	8d/ 8f	.	(16cc#X\LL	.	4r	.	4r	.	4r	.	4r	.	.	.	.	.	.	.	4r	.	4r	.	4r	.	4r	.	4r	.	4r	.
.	.	.	.	.	.	.	16dd\)	.	.	.	.	.	.	.	.	.	.	.	.	.	.	.	.	.	.	.	.	.	.	.	.	.	.	.
8B-\J	.	.	8b-X\J	.	8d/ 8fJ	.	(16an\	.	.	.	.	.	.	.	.	.	.	.	.	.	.	.	.	.	.	.	.	.	.	.	.	.	.	.
.	.	.	.	.	.	.	16b-\JJ)	.	.	.	.	.	.	.	.	.	.	.	.	.	.	.	.	.	.	.	.	.	.	.	.	.	.	.
=31	=31	=31	=31	=31	=31	=31	=31	=31	=31	=31	=31	=31	=31	=31	=31	=31	=31	=31	=31	=31	=31	=31	=31	=31	=31	=31	=31	=31	=31	=31	=31	=31	=31	=31
!	!	!LO:DY:b:Bi:t=for	!	!LO:DY:b:Bi:t=f	!	!	!	!LO:DY:rj:t=for	!	!	!	!	!	!	!	!	!	!	!	!	!	!	!	!LO:DY:b:Bi:t=f	!	!	!	!LO:DY:b:Bi:	!	!LO:DY:b:Bi:t=rf.	!	!LO:DY:b:Bi:t=f	!	!LO:DY:b:Bi:t=f
8G\L	-5	f	8g\L	f	8g/ 8b-L	.	16f|\LL	f	2.G\	no-	2.B-X\	no-	2.g\	no-	2.een\	no-	2.ryy	2.ryy	2.r	.	2.r	.	2.G\	f	2.B-X\	.	2.g\	f	2.een\	rf	2.gg\	f	2.eeen\	f
.	.	.	.	.	.	.	16dd-X|\	.	.	.	.	.	.	.	.	.	.	.	.	.	.	.	.	.	.	.	.	.	.	.	.	.	.	.
8G\	.	.	8g\	.	8g/ 8b-	.	(16b-\	.	.	.	.	.	.	.	.	.	.	.	.	.	.	.	.	.	.	.	.	.	.	.	.	.	.	.
.	.	.	.	.	.	.	16ff\JJ)	.	.	.	.	.	.	.	.	.	.	.	.	.	.	.	.	.	.	.	.	.	.	.	.	.	.	.
8G\	.	.	8g\	.	8g/ 8b-	.	16dd-|\LL	.	.	.	.	.	.	.	.	.	.	.	.	.	.	.	.	.	.	.	.	.	.	.	.	.	.	.
.	.	.	.	.	.	.	16bb-|\	.	.	.	.	.	.	.	.	.	.	.	.	.	.	.	.	.	.	.	.	.	.	.	.	.	.	.
8G\	.	.	8g\	.	8g/ 8b-	.	(16ff\	.	.	.	.	.	.	.	.	.	.	.	.	.	.	.	.	.	.	.	.	.	.	.	.	.	.	.
.	.	.	.	.	.	.	16ddd-X\JJ)	.	.	.	.	.	.	.	.	.	.	.	.	.	.	.	.	.	.	.	.	.	.	.	.	.	.	.
8G\	.	.	8g\	.	8g/ 8b-	.	(16bb-\LL	.	.	.	.	.	.	.	.	.	.	.	.	.	.	.	.	.	.	.	.	.	.	.	.	.	.	.
.	.	.	.	.	.	.	16gg\)	.	.	.	.	.	.	.	.	.	.	.	.	.	.	.	.	.	.	.	.	.	.	.	.	.	.	.
8G\J	.	.	8g\J	.	8g/ 8b-J	.	(16een\	.	.	.	.	.	.	.	.	.	.	.	.	.	.	.	.	.	.	.	.	.	.	.	.	.	.	.
.	.	.	.	.	.	.	16gg\JJ)	.	.	.	.	.	.	.	.	.	.	.	.	.	.	.	.	.	.	.	.	.	.	.	.	.	.	.
=32	=32	=32	=32	=32	=32	=32	=32	=32	=32	=32	=32	=32	=32	=32	=32	=32	=32	=32	=32	=32	=32	=32	=32	=32	=32	=32	=32	=32	=32	=32	=32	=32	=32	=32
!	!	!	!	!	!	!	!	!	!	!	!	!	!LO:LB:g=original	!	!	!	!	!	!	!	!	!	!LO:TX:t=P:problem:mixed beam	!	!LO:TX:t=P:problem:mixed beam	!	!	!	!	!	!	!LO:DY:b:Bi:t=p	!LO:TX:a:t=Solo:rj	!LO:DY:b:Bi:t=p
4F\	n	.	4f\	.	4an/	.	4ff\	.	4F\	-bis	4An\	-bis	4an\	-bis	4ff\	-bi[s]	2.ryy	2.ryy	2.r	.	2.r	.	8F\L	.	8F\L	.	4an\	p	4.ff\	p	4aan\	p	4fff\	p
.	.	.	.	.	.	.	.	.	.	.	.	.	.	.	.	.	.	.	.	.	.	.	8FF/	.	8FF/	.	.	.	.	.	.	.	.	.
4r	.	.	4r	.	4r	.	4r	.	4F\	A-	4f\	A-	4a\	A-	4cc\	A-	.	.	.	.	.	.	8AAn/	.	8AAn/	.	4a\	.	.	.	4aa\	.	4ccc\	.
.	.	.	.	.	.	.	.	.	.	.	.	.	.	.	.	.	.	.	.	.	.	.	8C/	.	8C/J	.	.	.	8cc\L	.	.	.	.	.
4r	.	.	4r	.	4r	.	4r	.	4F\	-gnus	4f\	-gnus	4a\	-gnus	4cc\	-gnus	.	.	.	.	.	.	8F/	.	8F\L	.	4a\	.	8cc\	.	4aa\	.	4ccc\	.
.	.	.	.	.	.	.	.	.	.	.	.	.	.	.	.	.	.	.	.	.	.	.	8E-/J	.	8E-\J	.	.	.	8cc\J	.	.	.	.	.
=33	=33	=33	=33	=33	=33	=33	=33	=33	=33	=33	=33	=33	=33	=33	=33	=33	=33	=33	=33	=33	=33	=33	=33	=33	=33	=33	=33	=33	=33	=33	=33	=33	=33	=33
!	!	!	!	!	!	!	!LO:TX:t=P:problem:usunięta 00r	!	!	!	!	!	!	!	!	!	!	!	!	!	!	!	!	!	!	!	!	!	!	!	!	!	!	!
!LO:TX:a:t=3.	!	!	!LO:TX:a:t=3	!	!LO:TX:a:t=4	!	!LO:TX:a:t=4.	!	!	!	!	!	!	!	!	!	!	!	!	!	!	!	!	!	!	!	!	!	!	!	!	!	!	!
1.r	.	.	1.r	.	0.r	.	0.r	.	4F\	de-	4f\	De-	4b-\	Dĕ-	4ddn\	Dĕ-	2.ryy	2.ryy	2.r	.	2.r	.	8D\L	.	8D\L	.	4b-X\	.	4ddn\	.	4bb-\	.	4dddn\	.
.	.	.	.	.	.	.	.	.	.	.	.	.	.	.	.	.	.	.	.	.	.	.	8F\	.	8F\	.	.	.	.	.	.	.	.	.
.	.	.	.	.	.	.	.	.	4F\	-i	4e-\	-i	4cc\	-i	4ee-X\	-i	.	.	.	.	.	.	8C\	.	8C\	.	4cc\	.	4ee-X\	.	4ccc\	.	4eee-X\	.
.	.	.	.	.	.	.	.	.	.	.	.	.	.	.	.	.	.	.	.	.	.	.	8E-\	.	8E-\	.	.	.	.	.	.	.	.	.
.	.	.	.	.	.	.	.	.	4F\	qvi	4f\	qui	4b-\	qui	4dd\	qui	.	.	.	.	.	.	8BB-\	.	8BB-\	.	4b-\	.	4dd\	.	4bb-\	.	4ddd\	.
.	.	.	.	.	.	.	.	.	.	.	.	.	.	.	.	.	.	.	.	.	.	.	8D\J	.	8D\J	.	.	.	.	.	.	.	.	.
=34	=34	=34	=34	=34	=34	=34	=34	=34	=34	=34	=34	=34	=34	=34	=34	=34	=34	=34	=34	=34	=34	=34	=34	=34	=34	=34	=34	=34	=34	=34	=34	=34	=34	=34
!	!	!	!	!	!	!	!	!	!LO:LB:g=original	!	!LO:PB:g=original	!	!	!	!	!	!	!	!	!	!	!	!LO:TX:t=P:problem:mixed beam	!	!LO:TX:t=P:problem:mixed beam	!	!LO:LB:g=original	!	!LO:PB:g=original	!	!	!	!	!
.	.	.	.	.	.	.	.	.	4F\	tol-	4f\	tol-	4an\	tol-	4cc\	tol-	2.ryy	2.ryy	2.r	.	2.r	.	8F\L	.	8F\L	.	4.an\	.	4.cc\	.	4.aan\	.	4.ccc\	.
.	.	.	.	.	.	.	.	.	.	.	.	.	.	.	.	.	.	.	.	.	.	.	8FF/	.	8FF/	.	.	.	.	.	.	.	.	.
.	.	.	.	.	.	.	.	.	4F\	-lis	4f\	-lis	4a\	-lis	4cc\	-lis	.	.	.	.	.	.	8AAn/	.	8AAn/	.	.	.	.	.	.	.	.	.
.	.	.	.	.	.	.	.	.	.	.	.	.	.	.	.	.	.	.	.	.	.	.	8C/	.	8C/J	.	8a\L	.	8cc\L	.	8aa\L	.	8ccc\L	.
.	.	.	.	.	.	.	.	.	4F\	pec-	4f\	pec-	4a\	peč-	4cc\	peč-	.	.	.	.	.	.	8F/	.	8F\L	.	8a\	.	8cc\	.	8aa\	.	8ccc\	.
.	.	.	.	.	.	.	.	.	.	.	.	.	.	.	.	.	.	.	.	.	.	.	8E-/J	.	8E-\J	.	8a\J	.	8cc\J	.	8aa\J	.	8ccc\J	.
=35	=35	=35	=35	=35	=35	=35	=35	=35	=35	=35	=35	=35	=35	=35	=35	=35	=35	=35	=35	=35	=35	=35	=35	=35	=35	=35	=35	=35	=35	=35	=35	=35	=35	=35
!	!	!	!	!	!	!	!	!	!	!	!	!	!	!	!	!	!	!	!	!	!	!	!	!	!LO:LB:g=original	!	!	!	!	!	!	!	!LO:LB:g=original	!
2.r	.	.	2.r	.	.	.	.	.	4F\	-ca-	4f\	-ca-	4b-\	-ča-	4dd\	-ča-	2.ryy	2.ryy	2.r	.	2.r	.	8D\L	.	8D\L	.	4b-\	.	4dd\	.	4bb-\	.	4ddd\	.
.	.	.	.	.	.	.	.	.	.	.	.	.	.	.	.	.	.	.	.	.	.	.	8F\	.	8F\	.	.	.	.	.	.	.	.	.
.	.	.	.	.	.	.	.	.	4F\	-ta	4e-\	-ta	4cc\	-ta	4ee-\	-ta	.	.	.	.	.	.	8C\	.	8C\	.	4cc\	.	4ee-X\	.	4ccc\	.	4eee-X\	.
.	.	.	.	.	.	.	.	.	.	.	.	.	.	.	.	.	.	.	.	.	.	.	8E-\	.	8E-\	.	.	.	.	.	.	.	.	.
.	.	.	.	.	.	.	.	.	4F\	mun-	4f\	mun-	4b-\	mun-	4dd\	mun-	.	.	.	.	.	.	8BB-\	.	8BB-\	.	4b-\	.	4dd\	.	4bb-\	.	4ddd\	.
.	.	.	.	.	.	.	.	.	.	.	.	.	.	.	.	.	.	.	.	.	.	.	8D\J	.	8D\J	.	.	.	.	.	.	.	.	.
=36	=36	=36	=36	=36	=36	=36	=36	=36	=36	=36	=36	=36	=36	=36	=36	=36	=36	=36	=36	=36	=36	=36	=36	=36	=36	=36	=36	=36	=36	=36	=36	=36	=36	=36
!	!	!	!	!	!	!	!	!	!	!	!	!	!	!	!LO:LB:g=original	!	!	!	!	!	!	!	!LO:LB:g=original	!	!	!	!	!	!	!	!LO:LB:g=original	!	!	!
8.F|\L	.	.	8.f\L	.	.	.	.	.	4F\	-di	4f\	-di	4an\	-di	4cc\	-di	2.ryy	2.ryy	2.r	.	2.r	.	4F\	.	4F\	.	4an/	.	4cc\	.	4aan\	.	4ccc\	.
16G\|Jk	.	.	16g\Jk	.	.	.	.	.	.	.	.	.	.	.	.	.	.	.	.	.	.	.	.	.	.	.	.	.	.	.	.	.	.	.
!	!	!	!	!	!	!	!	!	!	!	!	!	!	!	!	!	!	!	!	!	!	!	!	!	!	!	!	!	!	!	!LO:TX:t=P:problem:4r zapisane jedna pod drugą	!	!	!
8F|\L	.	.	8f\L	.	.	.	.	.	4r	.	4r	.	4r	.	4r	.	.	.	.	.	.	.	4r	.	4r	.	4r	.	4r	.	4r	.	4r	.
8E-|X\	.	.	8e-X\	.	.	.	.	.	.	.	.	.	.	.	.	.	.	.	.	.	.	.	.	.	.	.	.	.	.	.	.	.	.	.
8D|\	.	.	8d\	.	.	.	.	.	4r	.	4r	.	4r	.	4r	.	.	.	.	.	.	.	4r	.	4r	.	4r	.	4r	.	4r	.	4r	.
8C|\J	.	.	8c\J	.	.	.	.	.	.	.	.	.	.	.	.	.	.	.	.	.	.	.	.	.	.	.	.	.	.	.	.	.	.	.
=37	=37	=37	=37	=37	=37	=37	=37	=37	=37	=37	=37	=37	=37	=37	=37	=37	=37	=37	=37	=37	=37	=37	=37	=37	=37	=37	=37	=37	=37	=37	=37	=37	=37	=37
!LO:TX:t=P:problem:mixed beam	!	!	!LO:TX:t=P:problem:mixed beam	!LO:DY:b:Bi:t=p	!	!LO:DY:b:Bi:rj	!	!	!LO:TX:a:t=1.	!	!LO:TX:a:t=1	!	!	!	!LO:TX:b:t=1.	!	!	!	!	!	!	!	!LO:TX:a:t=1.	!	!LO:TX:a:t=1.	!	!LO:TX:a:t=1.	!	!LO:TX:a:t=1.	!	!	!	!LO:TX:a:t=1	!
!LO:LB:g=original	!	!	!	!	!	!	!	!	!	!	!	!	!	!	!	!	!	!	!	!	!	!	!	!	!	!	!	!	!	!	!	!	!	!
8BB-/L	3	.	8B-/L	p	8d/ 8fL	p	16r	.	2.r	.	2.r	.	2.r	.	2.r	.	2.ryy	2.ryy	2.r	.	2.r	.	2.r	.	2.r	.	2.r	.	2.r	.	2.r	.	2.r	.
.	.	.	.	.	.	.	16ddd\LL	.	.	.	.	.	.	.	.	.	.	.	.	.	.	.	.	.	.	.	.	.	.	.	.	.	.	.
8B-\J	_	.	8b-\J	.	8d/ 8f	.	16aan\	.	.	.	.	.	.	.	.	.	.	.	.	.	.	.	.	.	.	.	.	.	.	.	.	.	.	.
.	.	.	.	.	.	.	16bb-\JJ	.	.	.	.	.	.	.	.	.	.	.	.	.	.	.	.	.	.	.	.	.	.	.	.	.	.	.
8B-\L	x	.	8b-\L	.	8d/ 8f	.	(16een\LL	.	.	.	.	.	.	.	.	.	.	.	.	.	.	.	.	.	.	.	.	.	.	.	.	.	.	.
.	.	.	.	.	.	.	16ff\)	.	.	.	.	.	.	.	.	.	.	.	.	.	.	.	.	.	.	.	.	.	.	.	.	.	.	.
8B-\	.	.	8b-\	.	8d/ 8f	.	(16cc#X\	.	.	.	.	.	.	.	.	.	.	.	.	.	.	.	.	.	.	.	.	.	.	.	.	.	.	.
.	.	.	.	.	.	.	16dd\JJ)	.	.	.	.	.	.	.	.	.	.	.	.	.	.	.	.	.	.	.	.	.	.	.	.	.	.	.
8B-\	.	.	8b-\	.	8d/ 8f	.	16an/LL	.	.	.	.	.	.	.	.	.	.	.	.	.	.	.	.	.	.	.	.	.	.	.	.	.	.	.
.	.	.	.	.	.	.	16b-/	.	.	.	.	.	.	.	.	.	.	.	.	.	.	.	.	.	.	.	.	.	.	.	.	.	.	.
8B-\J	.	.	8b-\J	.	8d/ 8fJ	.	16en/	.	.	.	.	.	.	.	.	.	.	.	.	.	.	.	.	.	.	.	.	.	.	.	.	.	.	.
.	.	.	.	.	.	.	16f/JJ	.	.	.	.	.	.	.	.	.	.	.	.	.	.	.	.	.	.	.	.	.	.	.	.	.	.	.
=38	=38	=38	=38	=38	=38	=38	=38	=38	=38	=38	=38	=38	=38	=38	=38	=38	=38	=38	=38	=38	=38	=38	=38	=38	=38	=38	=38	=38	=38	=38	=38	=38	=38	=38
!	!	!LO:DY:b:Bi:t=for:rj	!	!	!LO:N:vis=2	!LO:DY:b:Bi:t=f:rj	!	!LO:DY:Bi:t=f.:rj	!	!	!	!	!	!	!	!	!	!	!	!	!	!	!	!	!	!	!	!LO:DY:b:Bi:	!	!LO:DY:b:Bi:t=rf.	!	!LO:DY:b:Bi:t=f	!	!LO:DY:b:Bi:t=f
8B-\L	5 3	f	8b-\L	f	8d/ 8fL	f	16d|/LL	f	2B-\	Mi-	2f\	mi-	2b-X\	Mi-	2dd\	Mi-	2.ryy	2.ryy	2.r	.	2.r	.	2.B-\	rf	2.d\	rf	2.b-\	f	2.dd\	rf	2.bb-\	f	2.ddd\	f
.	.	.	.	.	.	.	16b-|/	.	.	.	.	.	.	.	.	.	.	.	.	.	.	.	.	.	.	.	.	.	.	.	.	.	.	.
8B-\	.	.	8b-\	.	8d/ 8f	.	(16f/	.	.	.	.	.	.	.	.	.	.	.	.	.	.	.	.	.	.	.	.	.	.	.	.	.	.	.
.	.	.	.	.	.	.	16dd/JJ)	.	.	.	.	.	.	.	.	.	.	.	.	.	.	.	.	.	.	.	.	.	.	.	.	.	.	.
8B-\	.	.	8b-\	.	8d/ 8f	.	16dd'\LL	.	.	.	.	.	.	.	.	.	.	.	.	.	.	.	.	.	.	.	.	.	.	.	.	.	.	.
.	.	.	.	.	.	.	16ff'\	.	.	.	.	.	.	.	.	.	.	.	.	.	.	.	.	.	.	.	.	.	.	.	.	.	.	.
8B-\	.	.	8b-\	.	8d/ 8f	.	(16dd\	.	.	.	.	.	.	.	.	.	.	.	.	.	.	.	.	.	.	.	.	.	.	.	.	.	.	.
.	.	.	.	.	.	.	16bb-\JJ)	.	.	.	.	.	.	.	.	.	.	.	.	.	.	.	.	.	.	.	.	.	.	.	.	.	.	.
8B-\	.	.	8b-\	.	8d/ 8f	.	16ff'\LL	.	4B-\	-se-	4f\	-se-	4b-\	-se-	4dd\	-se-	.	.	.	.	.	.	.	.	.	.	.	.	.	.	.	.	.	.
.	.	.	.	.	.	.	16ddd|\	.	.	.	.	.	.	.	.	.	.	.	.	.	.	.	.	.	.	.	.	.	.	.	.	.	.	.
8B-\J	.	.	8b-\J	.	8d/ 8fJ	.	(16bb-\	.	.	.	.	.	.	.	.	.	.	.	.	.	.	.	.	.	.	.	.	.	.	.	.	.	.	.
.	.	.	.	.	.	.	16fff\JJ)	.	.	.	.	.	.	.	.	.	.	.	.	.	.	.	.	.	.	.	.	.	.	.	.	.	.	.
=39	=39	=39	=39	=39	=39	=39	=39	=39	=39	=39	=39	=39	=39	=39	=39	=39	=39	=39	=39	=39	=39	=39	=39	=39	=39	=39	=39	=39	=39	=39	=39	=39	=39	=39
!	!	!LO:DY:b:Bi:t=p&colon;	!	!LO:DY:b:Bi:t=p	!	!LO:DY:b:Bi:rj	!LO:LB:g=original	!	!	!	!	!	!	!	!	!	!	!	!	!	!	!	!	!LO:DY:b:Bi:t=p	!	!LO:DY:b:Bi:p	!	!	!	!	!	!LO:DY:b:Bi:t=p	!	!LO:DY:b:Bi:t=p
8An\L	5 3	p	8f\L	p	8c/ 8e-L	p	16r	p	4An\	-re-	4f\	-re-	4cc\	-re-	4ee-\	-re-	2.ryy	2.ryy	2.r	.	2.r	.	2c\	p	2e-\	p	2an\	p	2ee-X\	p	2ccc\	p	2eee-\	p
.	.	.	.	.	.	.	16eee-X|\LL	.	.	.	.	.	.	.	.	.	.	.	.	.	.	.	.	.	.	.	.	.	.	.	.	.	.	.
8An\	.	.	8f\	.	8c/ 8e-	.	(16bbn\	.	.	.	.	.	.	.	.	.	.	.	.	.	.	.	.	.	.	.	.	.	.	.	.	.	.	.
.	.	.	.	.	.	.	16ccc\JJ)	.	.	.	.	.	.	.	.	.	.	.	.	.	.	.	.	.	.	.	.	.	.	.	.	.	.	.
8An\	.	.	8f\	.	8c/ 8e-	.	(16gg#X\LL	.	4A\	-re	4f\	-[re]	4cc\	-re	4ee-\	-re	.	.	.	.	.	.	.	.	.	.	.	.	.	.	.	.	.	.
!	!	!	!	!	!	!	!LO:SIC:v:s=16aan	!	!	!	!	!	!	!	!	!	!	!	!	!	!	!	!	!	!	!	!	!	!	!	!	!	!	!
.	.	.	.	.	.	.	16aa-\)	.	.	.	.	.	.	.	.	.	.	.	.	.	.	.	.	.	.	.	.	.	.	.	.	.	.	.
8An\	.	.	8f\	.	8c/ 8e-	.	(16een\	.	.	.	.	.	.	.	.	.	.	.	.	.	.	.	.	.	.	.	.	.	.	.	.	.	.	.
.	.	.	.	.	.	.	16ff\JJ)	.	.	.	.	.	.	.	.	.	.	.	.	.	.	.	.	.	.	.	.	.	.	.	.	.	.	.
8An\	.	.	8f\	.	8c/ 8e-	.	(16dd\LL	.	4r	.	4r	.	4r	.	4r	.	.	.	.	.	.	.	4r	.	4r	.	4r	.	4r	.	4r	.	4r	.
.	.	.	.	.	.	.	16ee-X\)	.	.	.	.	.	.	.	.	.	.	.	.	.	.	.	.	.	.	.	.	.	.	.	.	.	.	.
8An\J	.	.	8f\J	.	8c/ 8e-J	.	(16bn\	.	.	.	.	.	.	.	.	.	.	.	.	.	.	.	.	.	.	.	.	.	.	.	.	.	.	.
.	.	.	.	.	.	.	16cc\JJ)	.	.	.	.	.	.	.	.	.	.	.	.	.	.	.	.	.	.	.	.	.	.	.	.	.	.	.
=40	=40	=40	=40	=40	=40	=40	=40	=40	=40	=40	=40	=40	=40	=40	=40	=40	=40	=40	=40	=40	=40	=40	=40	=40	=40	=40	=40	=40	=40	=40	=40	=40	=40	=40
*	*	*	*	*	*	*	*	*	*	*ij	*	*ij	*	*	*	*ij	*	*	*	*	*	*	*	*	*	*	*	*	*	*	*	*	*	*
!	!	!LO:DY:b:Bi:t=for	!	!	!	!LO:DY:b:Bi:t=f:rj	!	!	!	!	!	!	!LO:PB:g=original	!	!	!	!	!	!	!	!	!	!	!	!	!	!	!LO:DY:b:Bi:	!	!LO:DY:b:Bi:t=rf.	!	!LO:DY:b:Bi:t=f	!	!LO:DY:b:Bi:t=f
8F\L	7 n5	f	8f\L	f	8c/ 8e-L	f	16f|\LL	f	2F\	Mi-	2f\	mi-	2cc\	Mi-	2ee-\	Mi-	2.ryy	2.ryy	2.r	.	2.r	.	2.c\	rf	2.e-\	rf	2.cc\	f	2.ee-\	rf	2.ccc\	f	2.eee-\	f
.	.	.	.	.	.	.	16cc|\	.	.	.	.	.	.	.	.	.	.	.	.	.	.	.	.	.	.	.	.	.	.	.	.	.	.	.
8F\	.	.	8f\	.	8c/ 8e-	.	(16an\	.	.	.	.	.	.	.	.	.	.	.	.	.	.	.	.	.	.	.	.	.	.	.	.	.	.	.
.	.	.	.	.	.	.	16ee-X\JJ)	.	.	.	.	.	.	.	.	.	.	.	.	.	.	.	.	.	.	.	.	.	.	.	.	.	.	.
8F\	.	.	8f\	.	8c/ 8e-	.	16cc|\LL	.	.	.	.	.	.	.	.	.	.	.	.	.	.	.	.	.	.	.	.	.	.	.	.	.	.	.
.	.	.	.	.	.	.	16aan|\	.	.	.	.	.	.	.	.	.	.	.	.	.	.	.	.	.	.	.	.	.	.	.	.	.	.	.
8F\	.	.	8f\	.	8c/ 8e-	.	(16ff\	.	.	.	.	.	.	.	.	.	.	.	.	.	.	.	.	.	.	.	.	.	.	.	.	.	.	.
.	.	.	.	.	.	.	16ccc\JJ)	.	.	.	.	.	.	.	.	.	.	.	.	.	.	.	.	.	.	.	.	.	.	.	.	.	.	.
!	!	!	!	!	!	!	!	!	!	!	!	!	!LO:N:vis=4.	!	!	!	!	!	!	!	!	!	!	!	!	!	!	!	!	!	!	!	!	!
8F\	.	.	8f\	.	8c/ 8e-	.	16aa|\LL	.	4F\	-se-	4f\	-se-	4cc\	-se-	4ee-\	-se-	.	.	.	.	.	.	.	.	.	.	.	.	.	.	.	.	.	.
.	.	.	.	.	.	.	16eee-|\	.	.	.	.	.	.	.	.	.	.	.	.	.	.	.	.	.	.	.	.	.	.	.	.	.	.	.
8F\J	.	.	8f\J	.	8c/ 8e-J	.	(16ccc\	.	.	.	.	.	.	.	.	.	.	.	.	.	.	.	.	.	.	.	.	.	.	.	.	.	.	.
.	.	.	.	.	.	.	16aa\JJ)	.	.	.	.	.	.	.	.	.	.	.	.	.	.	.	.	.	.	.	.	.	.	.	.	.	.	.
=41	=41	=41	=41	=41	=41	=41	=41	=41	=41	=41	=41	=41	=41	=41	=41	=41	=41	=41	=41	=41	=41	=41	=41	=41	=41	=41	=41	=41	=41	=41	=41	=41	=41	=41
!	!	!LO:DY:b:Bi:t=p.	!	!LO:DY:b:Bi:t=p	!	!LO:DY:b:Bi:rj	!	!	!	!	!	!	!	!	!	!	!	!	!	!	!	!	!	!LO:DY:b:Bi:t=p	!	!LO:DY:b:Bi:p	!	!	!	!	!	!LO:DY:b:Bi:t=p	!	!LO:DY:b:Bi:t=p
8B-\L	3	p	8b-\L	p	8d/ 8fL	p	16r	p	4B-\	-re-	4f\	-re-	4b-\	-re-	4dd\	-re-	2.ryy	2.ryy	2.r	.	2.r	.	2B-\	p	2d\	p	2b-X\	p	2dd\	p	2bb-\	p	2ddd\	p
.	.	.	.	.	.	.	16fff|\LL	.	.	.	.	.	.	.	.	.	.	.	.	.	.	.	.	.	.	.	.	.	.	.	.	.	.	.
8B-\	.	.	8b-\	.	8d/ 8f	.	(16ccc#X\	.	.	.	.	.	.	.	.	.	.	.	.	.	.	.	.	.	.	.	.	.	.	.	.	.	.	.
.	.	.	.	.	.	.	16ddd\JJ)	.	.	.	.	.	.	.	.	.	.	.	.	.	.	.	.	.	.	.	.	.	.	.	.	.	.	.
!	!	!	!	!	!	!	!LO:TX:t=P:problem:16een poprawione na 16aan	!	!	!	!	!	!	!	!	!	!	!	!	!	!	!	!	!	!	!	!	!	!	!	!	!	!	!
8B-\	.	.	8b-\	.	8d/ 8f	.	(16aan\LL	.	4B-\	-re	4f\	-re	4b-\	-re	4dd\	-re	.	.	.	.	.	.	.	.	.	.	.	.	.	.	.	.	.	.
.	.	.	.	.	.	.	16bb-\)	.	.	.	.	.	.	.	.	.	.	.	.	.	.	.	.	.	.	.	.	.	.	.	.	.	.	.
8B-\	.	.	8b-\	.	8d/ 8f	.	(16een\	.	.	.	.	.	.	.	.	.	.	.	.	.	.	.	.	.	.	.	.	.	.	.	.	.	.	.
.	.	.	.	.	.	.	16ff\JJ)	.	.	.	.	.	.	.	.	.	.	.	.	.	.	.	.	.	.	.	.	.	.	.	.	.	.	.
8B-\	.	.	8b-\	.	8d/ 8f	.	(16cc#X\LL	.	4r	.	4r	.	4r	.	4r	.	.	.	.	.	.	.	4r	.	4r	.	4r	.	4r	.	4r	.	4r	.
.	.	.	.	.	.	.	16dd\)	.	.	.	.	.	.	.	.	.	.	.	.	.	.	.	.	.	.	.	.	.	.	.	.	.	.	.
8B-\J	.	.	8b-\J	.	8d/ 8fJ	.	(16an\	.	.	.	.	.	.	.	.	.	.	.	.	.	.	.	.	.	.	.	.	.	.	.	.	.	.	.
.	.	.	.	.	.	.	16b-\JJ)	.	.	.	.	.	.	.	.	.	.	.	.	.	.	.	.	.	.	.	.	.	.	.	.	.	.	.
=42	=42	=42	=42	=42	=42	=42	=42	=42	=42	=42	=42	=42	=42	=42	=42	=42	=42	=42	=42	=42	=42	=42	=42	=42	=42	=42	=42	=42	=42	=42	=42	=42	=42	=42
*	*	*	*	*	*	*	*	*	*	*Xij	*	*	*	*ij	*	*	*	*	*	*	*	*	*	*	*	*	*	*	*	*	*	*	*	*
!	!	!LO:DY:b:Bi:t=f.	!	!	!	!LO:DY:b:Bi:t=f:rj	!	!LO:DY:Bi:t=f:rj	!LO:LB:g=original	!	!	!	!	!	!	!	!	!	!	!	!	!	!	!	!	!	!	!LO:DY:b:Bi:	!	!LO:DY:b:Bi:t=rf.	!	!LO:DY:b:Bi:t=f	!	!LO:DY:b:Bi:t=f
8BB-/L	7 5 3	f	8d\L	f	8B-X/ 8fL	f	16f|\LL	f	2BB-/	Mi-	2d\	mi-	2a-X\	Mi-	2ff\	Mi-	2.ryy	2.ryy	2.r	.	2.r	.	2.A-X\	rf	2.f\	rf	2.dd\	f	2.ff\	rf	2.ddd\	f	2.fff\	f
.	.	.	.	.	.	.	16dd|\	.	.	.	.	.	.	.	.	.	.	.	.	.	.	.	.	.	.	.	.	.	.	.	.	.	.	.
8BB-/	.	.	8d\	.	8B-X/ 8f	.	(16b-\	.	.	.	.	.	.	.	.	.	.	.	.	.	.	.	.	.	.	.	.	.	.	.	.	.	.	.
.	.	.	.	.	.	.	16ff\JJ)	.	.	.	.	.	.	.	.	.	.	.	.	.	.	.	.	.	.	.	.	.	.	.	.	.	.	.
8BB-/	.	.	8d\	.	8B-X/ 8f	.	16dd|\LL	.	.	.	.	.	.	.	.	.	.	.	.	.	.	.	.	.	.	.	.	.	.	.	.	.	.	.
.	.	.	.	.	.	.	16aa-X|\	.	.	.	.	.	.	.	.	.	.	.	.	.	.	.	.	.	.	.	.	.	.	.	.	.	.	.
8BB-/	.	.	8d\	.	8B-X/ 8f	.	(16ff\	.	.	.	.	.	.	.	.	.	.	.	.	.	.	.	.	.	.	.	.	.	.	.	.	.	.	.
.	.	.	.	.	.	.	16dd\JJ)	.	.	.	.	.	.	.	.	.	.	.	.	.	.	.	.	.	.	.	.	.	.	.	.	.	.	.
!	!	!	!	!	!	!	!LO:LB:g=original	!	!	!	!	!	!	!	!	!	!	!	!	!	!	!	!	!	!	!	!	!	!	!	!	!	!	!
8BB-/	.	.	8d\	.	8B-X/ 8f	.	16b-|/LL	.	4BB-/	-se-	4d\	-se-	4a-\	-se-	4ff\	-se-	.	.	.	.	.	.	.	.	.	.	.	.	.	.	.	.	.	.
.	.	.	.	.	.	.	16a-X|/	.	.	.	.	.	.	.	.	.	.	.	.	.	.	.	.	.	.	.	.	.	.	.	.	.	.	.
8BB-/J	.	.	8d\J	.	8B-X/ 8fJ	.	(16f/	.	.	.	.	.	.	.	.	.	.	.	.	.	.	.	.	.	.	.	.	.	.	.	.	.	.	.
.	.	.	.	.	.	.	16d/JJ)	.	.	.	.	.	.	.	.	.	.	.	.	.	.	.	.	.	.	.	.	.	.	.	.	.	.	.
=43	=43	=43	=43	=43	=43	=43	=43	=43	=43	=43	=43	=43	=43	=43	=43	=43	=43	=43	=43	=43	=43	=43	=43	=43	=43	=43	=43	=43	=43	=43	=43	=43	=43	=43
!	!	!LO:DY:b:Bi:t=p&colon;	!	!LO:DY:b:Bi:t=p	!LO:LB:g=original	!LO:DY:b:Bi:rj	!	!	!	!	!	!	!	!	!	!	!	!	!	!	!	!	!	!LO:DY:b:Bi:t=p	!	!LO:DY:b:Bi:p	!	!	!	!	!	!LO:DY:b:Bi:t=p	!	!LO:DY:b:Bi:t=p
8E-\L	3	p	8e-\L	p	8B-/ 8gL	p	16r	p	4E-\	-re-	4e-\	-re-	4b-\	-re-	4gg\	-re-	2.ryy	2.ryy	2.r	.	2.r	.	2G\	p	2e-\	p	2ee-X\	p	2gg\	p	2eee-\	p	2ggg\	p
.	.	.	.	.	.	.	16bb-|\LL	.	.	.	.	.	.	.	.	.	.	.	.	.	.	.	.	.	.	.	.	.	.	.	.	.	.	.
8E-\	.	.	8e-\	.	8B-/ 8g	.	(16ff#X\	.	.	.	.	.	.	.	.	.	.	.	.	.	.	.	.	.	.	.	.	.	.	.	.	.	.	.
.	.	.	.	.	.	.	16gg\JJ)	.	.	.	.	.	.	.	.	.	.	.	.	.	.	.	.	.	.	.	.	.	.	.	.	.	.	.
8E-\	.	.	8e-\	.	8B-/ 8g	.	(16dd\LL	.	4E-\	-re	4e-\	-re	4b-\	-re	4gg\	-re	.	.	.	.	.	.	.	.	.	.	.	.	.	.	.	.	.	.
*	*	*	*	*	*	*	*	*	*	*ij	*	*Xij	*	*Xij	*	*Xij	*	*	*	*	*	*	*	*	*	*	*	*	*	*	*	*	*	*
.	.	.	.	.	.	.	16ee-\)	.	.	.	.	.	.	.	.	.	.	.	.	.	.	.	.	.	.	.	.	.	.	.	.	.	.	.
8E-\	.	.	8e-\	.	8B-/ 8g	.	(16an\	.	.	.	.	.	.	.	.	.	.	.	.	.	.	.	.	.	.	.	.	.	.	.	.	.	.	.
.	.	.	.	.	.	.	16b-\JJ)	.	.	.	.	.	.	.	.	.	.	.	.	.	.	.	.	.	.	.	.	.	.	.	.	.	.	.
8E-\	.	.	8e-\	.	8B-/ 8g	.	(16f#X/LL	.	4r	.	4r	.	4r	.	4r	.	.	.	.	.	.	.	4r	.	4r	.	4r	.	4r	.	4r	.	4r	.
.	.	.	.	.	.	.	16g/)	.	.	.	.	.	.	.	.	.	.	.	.	.	.	.	.	.	.	.	.	.	.	.	.	.	.	.
8E-\J	.	.	8e-\J	.	8B-/ 8gJ	.	(16d/	.	.	.	.	.	.	.	.	.	.	.	.	.	.	.	.	.	.	.	.	.	.	.	.	.	.	.
.	.	.	.	.	.	.	16e-/JJ)	.	.	.	.	.	.	.	.	.	.	.	.	.	.	.	.	.	.	.	.	.	.	.	.	.	.	.
=44	=44	=44	=44	=44	=44	=44	=44	=44	=44	=44	=44	=44	=44	=44	=44	=44	=44	=44	=44	=44	=44	=44	=44	=44	=44	=44	=44	=44	=44	=44	=44	=44	=44	=44
!	!	!LO:DY:b:Bi:t=f.:rj	!	!	!	!LO:DY:b:Bi:t=f:rj	!	!LO:DY:b:Bi:t=f.:rj	!	!	!	!	!	!	!	!	!	!	!	!	!	!	!	!	!	!	!	!LO:DY:b:Bi:	!LO:LB:g=original	!	!	!LO:DY:b:Bi:t=f	!	!LO:DY:b:Bi:t=f
8E-\L	_	f	8e-\L	f	8B-/ 8gL	f	16B-|/LL	f	2E-\	Mi-	2e-\	mi-	2b-\	Mi-	2gg\	mi-	2.ryy	2.ryy	2.r	.	2.r	.	2.G\	rf	2.e-\	.	2.ee-X\	f	2.gg\	.	2.gg\	f	2.eee-\	f
.	.	.	.	.	.	.	16g|/	.	.	.	.	.	.	.	.	.	.	.	.	.	.	.	.	.	.	.	.	.	.	.	.	.	.	.
8E-\	.	.	8e-\	.	8B-/ 8g	.	(16e-/	.	.	.	.	.	.	.	.	.	.	.	.	.	.	.	.	.	.	.	.	.	.	.	.	.	.	.
.	.	.	.	.	.	.	16b-/JJ)	.	.	.	.	.	.	.	.	.	.	.	.	.	.	.	.	.	.	.	.	.	.	.	.	.	.	.
8E-\	.	.	8e-\	.	8B-/ 8g	.	16g|\LL	.	.	.	.	.	.	.	.	.	.	.	.	.	.	.	.	.	.	.	.	.	.	.	.	.	.	.
.	.	.	.	.	.	.	16ee-|\	.	.	.	.	.	.	.	.	.	.	.	.	.	.	.	.	.	.	.	.	.	.	.	.	.	.	.
8E-\	.	.	8e-\	.	8B-/ 8g	.	(16b-\	.	.	.	.	.	.	.	.	.	.	.	.	.	.	.	.	.	.	.	.	.	.	.	.	.	.	.
.	.	.	.	.	.	.	16gg\JJ)	.	.	.	.	.	.	.	.	.	.	.	.	.	.	.	.	.	.	.	.	.	.	.	.	.	.	.
8E-\	.	.	8e-\	.	8B-/ 8g	.	16ee-|\LL	.	4E-\	-se-	4e-\	-se-	4b-\	-se-	4gg\	-se-	.	.	.	.	.	.	.	.	.	.	.	.	.	.	.	.	.	.
.	.	.	.	.	.	.	16bb-|\	.	.	.	.	.	.	.	.	.	.	.	.	.	.	.	.	.	.	.	.	.	.	.	.	.	.	.
8E-\J	.	.	8e-\J	.	8B-/ 8gJ	.	(16gg\	.	.	.	.	.	.	.	.	.	.	.	.	.	.	.	.	.	.	.	.	.	.	.	.	.	.	.
.	.	.	.	.	.	.	16eee-\JJ)	.	.	.	.	.	.	.	.	.	.	.	.	.	.	.	.	.	.	.	.	.	.	.	.	.	.	.
=45	=45	=45	=45	=45	=45	=45	=45	=45	=45	=45	=45	=45	=45	=45	=45	=45	=45	=45	=45	=45	=45	=45	=45	=45	=45	=45	=45	=45	=45	=45	=45	=45	=45	=45
!	!	!	!LO:LB:g=original	!LO:DY:b:Bi:t=f	!	!LO:DY:b:Bi:rj	!	!LO:DY:b:Bi:t=f.:rj	!	!	!	!	!	!	!LO:LB:g=original	!	!	!	!	!	!	!	!LO:SIC:v:s=2.An	!	!LO:N:vis=2	!	!	!	!	!	!	!LO:DY:b:Bi:t=p	!	!LO:DY:b:Bi:t=f
!	!	!LO:DY:b:Bi:t=for	!	!	!	!	!	!	!	!	!	!	!	!	!	!	!	!	!	!LO:DY:b:Bi:t=f:rj	!	!LO:DY:b:Bi:t=f	!	!	!LO:LB:g=original	!	!	!	!	!	!	!	!	!
8F#X\L	7 5 n	f	8an\L	f	8c/ 8e-L	p	16r	f	2.F#X\	-re-	2.e-\	-re-	2.cc\	-re-	2.aan\	-re-	2.ryy	2.ryy	2.c/	f	2.cc\	f	2.A-\	.	2.cn\	.	2.cc\	.	2.aan\	.	2.ccc\	p	2.eee-\	f
.	.	.	.	.	.	.	16eee-|\LL	.	.	.	.	.	.	.	.	.	.	.	.	.	.	.	.	.	.	.	.	.	.	.	.	.	.	.
8F#X\	.	.	8an\	.	8c/ 8e-	.	(16ccc\	.	.	.	.	.	.	.	.	.	.	.	.	.	.	.	.	.	.	.	.	.	.	.	.	.	.	.
.	.	.	.	.	.	.	16aan\JJ)	.	.	.	.	.	.	.	.	.	.	.	.	.	.	.	.	.	.	.	.	.	.	.	.	.	.	.
8F#X\	.	.	8an\	.	8c/ 8e-	.	(16ff#X\LL	.	.	.	.	.	.	.	.	.	.	.	.	.	.	.	.	.	.	.	.	.	.	.	.	.	.	.
.	.	.	.	.	.	.	16ee-X\)	.	.	.	.	.	.	.	.	.	.	.	.	.	.	.	.	.	.	.	.	.	.	.	.	.	.	.
8F#X\	.	.	8an\	.	8c/ 8e-	.	(16cc\	.	.	.	.	.	.	.	.	.	.	.	.	.	.	.	.	.	.	.	.	.	.	.	.	.	.	.
.	.	.	.	.	.	.	16an\JJ)	.	.	.	.	.	.	.	.	.	.	.	.	.	.	.	.	.	.	.	.	.	.	.	.	.	.	.
8F#X\	.	.	8an\	.	8c/ 8e-	.	(16f#X/LL	.	.	.	.	.	.	.	.	.	.	.	.	.	.	.	.	.	.	.	.	.	.	.	.	.	.	.
.	.	.	.	.	.	.	16e-X/)	.	.	.	.	.	.	.	.	.	.	.	.	.	.	.	.	.	.	.	.	.	.	.	.	.	.	.
8F#X\J	.	.	8an\J	.	8c/ 8e-J	.	(16c/	.	.	.	.	.	.	.	.	.	.	.	.	.	.	.	.	.	.	.	.	.	.	.	.	.	.	.
.	.	.	.	.	.	.	16An/JJ)	.	.	.	.	.	.	.	.	.	.	.	.	.	.	.	.	.	.	.	.	.	.	.	.	.	.	.
=46	=46	=46	=46	=46	=46	=46	=46	=46	=46	=46	=46	=46	=46	=46	=46	=46	=46	=46	=46	=46	=46	=46	=46	=46	=46	=46	=46	=46	=46	=46	=46	=46	=46	=46
!	!	!	!	!LO:DY:b:pBi:t=	!LO:N:n=2:vis=2	!LO:DY:b:Bi:t=f:rj	!	!	!	!	!LO:LB:g=original	!	!	!	!	!	!	!	!	!	!	!	!	!	!LO:N:vis=2	!	!	!	!	!	!	!LO:DY:b:Bi:t=f	!	!
8G\L	n	.	8g\L	p	8Bn/ 8dL	f	16r	.	2.G\	-re	2.d\	-re	2.bn\	-re	2.gg\	-re	2.ryy	2.ryy	2.G/	.	2.g/	.	2.G\	.	2.Bn\	.	2.bn\	.	2.gg\	.	2.bbn\	f	2.ddd\	.
*	*	*	*	*	*	*	*	*	*	*Xij	*	*	*	*	*	*	*	*	*	*	*	*	*	*	*	*	*	*	*	*	*	*	*	*
.	.	.	.	.	.	.	16G|/LL	.	.	.	.	.	.	.	.	.	.	.	.	.	.	.	.	.	.	.	.	.	.	.	.	.	.	.
8G\	.	.	8g\	.	8Bn/ 8d	.	(16Bn/	.	.	.	.	.	.	.	.	.	.	.	.	.	.	.	.	.	.	.	.	.	.	.	.	.	.	.
.	.	.	.	.	.	.	16d/JJ)	.	.	.	.	.	.	.	.	.	.	.	.	.	.	.	.	.	.	.	.	.	.	.	.	.	.	.
!	!	!	!	!	!	!	!LO:LB:g=original	!	!	!	!	!	!	!	!	!	!	!	!	!	!	!	!	!	!	!	!	!	!	!	!	!	!	!
8G\	.	.	8g\	.	8Bn/ 8d	.	(16g\LL	.	.	.	.	.	.	.	.	.	.	.	.	.	.	.	.	.	.	.	.	.	.	.	.	.	.	.
.	.	.	.	.	.	.	16bn\)	.	.	.	.	.	.	.	.	.	.	.	.	.	.	.	.	.	.	.	.	.	.	.	.	.	.	.
8G\	.	.	8g\	.	8Bn/ 8d	.	(16b\	.	.	.	.	.	.	.	.	.	.	.	.	.	.	.	.	.	.	.	.	.	.	.	.	.	.	.
.	.	.	.	.	.	.	16dd\JJ)	.	.	.	.	.	.	.	.	.	.	.	.	.	.	.	.	.	.	.	.	.	.	.	.	.	.	.
8G\	.	.	8g\	.	8Bn/ 8d	.	(16dd\LL	.	.	.	.	.	.	.	.	.	.	.	.	.	.	.	.	.	.	.	.	.	.	.	.	.	.	.
.	.	.	.	.	.	.	16gg\)	.	.	.	.	.	.	.	.	.	.	.	.	.	.	.	.	.	.	.	.	.	.	.	.	.	.	.
8G\J	.	.	8g\J	.	8Bn/ 8dJ	.	(16bbn\	.	.	.	.	.	.	.	.	.	.	.	.	.	.	.	.	.	.	.	.	.	.	.	.	.	.	.
.	.	.	.	.	.	.	16ddd\JJ)	.	.	.	.	.	.	.	.	.	.	.	.	.	.	.	.	.	.	.	.	.	.	.	.	.	.	.
=47	=47	=47	=47	=47	=47	=47	=47	=47	=47	=47	=47	=47	=47	=47	=47	=47	=47	=47	=47	=47	=47	=47	=47	=47	=47	=47	=47	=47	=47	=47	=47	=47	=47	=47
!	!	!	!	!	!	!	!	!	!	!	!	!	!	!	!	!	!	!	!	!	!	!	!LO:LB:g=original	!	!	!	!LO:LB:g=original	!	!	!	!	!LO:DY:b:Bi:t=p	!	!
8F#X\L	7 5 n	.	8an\L	.	8c/ 8e-L	.	16r	.	2.F#X\	no-	2.e-\	no-	2.cc\	no-	2.aan\	no-	2.ryy	2.ryy	2.c/	.	2.cc\	.	2.An\	.	2.c\	.	2.cc\	.	2.aan\	.	2.ccc\	p	2.eee-\	.
.	.	.	.	.	.	.	16eee-X|\LL	.	.	.	.	.	.	.	.	.	.	.	.	.	.	.	.	.	.	.	.	.	.	.	.	.	.	.
8F#X\	.	.	8an\	.	8c/ 8e-	.	(16ccc\	.	.	.	.	.	.	.	.	.	.	.	.	.	.	.	.	.	.	.	.	.	.	.	.	.	.	.
.	.	.	.	.	.	.	16aan\JJ)	.	.	.	.	.	.	.	.	.	.	.	.	.	.	.	.	.	.	.	.	.	.	.	.	.	.	.
8F#X\	.	.	8an\	.	8c/ 8e-	.	16ff#X\LL	.	.	.	.	.	.	.	.	.	.	.	.	.	.	.	.	.	.	.	.	.	.	.	.	.	.	.
.	.	.	.	.	.	.	16ee-X\	.	.	.	.	.	.	.	.	.	.	.	.	.	.	.	.	.	.	.	.	.	.	.	.	.	.	.
8F#X\	.	.	8an\	.	8c/ 8e-	.	16cc\	.	.	.	.	.	.	.	.	.	.	.	.	.	.	.	.	.	.	.	.	.	.	.	.	.	.	.
.	.	.	.	.	.	.	16an\JJ	.	.	.	.	.	.	.	.	.	.	.	.	.	.	.	.	.	.	.	.	.	.	.	.	.	.	.
8F#X\	.	.	8an\	.	8c/ 8e-	.	(16f#X/LL	.	.	.	.	.	.	.	.	.	.	.	.	.	.	.	.	.	.	.	.	.	.	.	.	.	.	.
.	.	.	.	.	.	.	16e-/)	.	.	.	.	.	.	.	.	.	.	.	.	.	.	.	.	.	.	.	.	.	.	.	.	.	.	.
8F#X\J	.	.	8an\J	.	8c/ 8e-J	.	(16c/	.	.	.	.	.	.	.	.	.	.	.	.	.	.	.	.	.	.	.	.	.	.	.	.	.	.	.
.	.	.	.	.	.	.	16An/JJ)	.	.	.	.	.	.	.	.	.	.	.	.	.	.	.	.	.	.	.	.	.	.	.	.	.	.	.
=48	=48	=48	=48	=48	=48	=48	=48	=48	=48	=48	=48	=48	=48	=48	=48	=48	=48	=48	=48	=48	=48	=48	=48	=48	=48	=48	=48	=48	=48	=48	=48	=48	=48	=48
!LO:LB:g=original	!	!	!	!	!	!	!	!	!	!	!	!	!	!	!	!	!	!	!LO:TX:a:t=Solo	!	!	!	!	!	!LO:SIC:v:s=4Bn	!	!	!	!	!	!	!	!	!
4G\	n	.	4g\	.	4Bn/ 4d	.	4G/	.	4G\	-bis	4d\	-bis	4bn\	-bis	4gg\	-bis	2.ryy	2.ryy	4.G/	.	4.g/	.	4G\	.	4B-\	.	4bn\	.	4gg\	.	4bbn\	.	4ddd\	.
!	!	!	!	!	!	!	!	!	!	!	!	!	!	!	!	!	!	!	!	!	!	!	!	!	!	!	!	!	!	!	!LO:TX:t=P:problem:4r zapisane jedna pod drugą	!	!LO:TX:t=P:problem:4r zapisane jedna pod drugą	!
4r	.	.	4r	.	4r	.	4r	.	4r	.	4r	.	4r	.	4r	.	.	.	.	.	.	.	4r	.	4r	.	4r	.	4r	.	4r	.	4r	.
.	.	.	.	.	.	.	.	.	.	.	.	.	.	.	.	.	.	.	8G/L	.	8g/L	.	.	.	.	.	.	.	.	.	.	.	.	.
4r	.	.	4r	.	4r	.	4r	.	4r	.	4r	.	4r	.	4r	.	.	.	8G/	.	8g/	.	4r	.	4r	.	4r	.	4r	.	4r	.	4r	.
.	.	.	.	.	.	.	.	.	.	.	.	.	.	.	.	.	.	.	8G/J	.	8g/J	.	.	.	.	.	.	.	.	.	.	.	.	.
=49	=49	=49	=49	=49	=49	=49	=49	=49	=49	=49	=49	=49	=49	=49	=49	=49	=49	=49	=49	=49	=49	=49	=49	=49	=49	=49	=49	=49	=49	=49	=49	=49	=49	=49
!LO:TX:a:t=3.	!	!	!LO:TX:a:t=3	!	!	!	!LO:TX:a:t=3.	!	!	!	!	!	!LO:LB:g=original	!	!	!	!	!	!	!	!	!	!	!LO:DY:b:Bi:t=p	!	!	!	!	!	!	!LO:LB:g=original	!LO:DY:b:Bi:t=p	!LO:LB:g=original	!
1.r	.	.	1.r	.	1.r	.	1.r	.	2G\	A-	2g\	A-	2bn\	A-	2dd\	A-	2.ryy	2.ryy	2.G/	.	2.g/	.	8r	p	8r	.	2bn\	p	2dd\	p	2bbn\	p	2ddd\	.
.	.	.	.	.	.	.	.	.	.	.	.	.	.	.	.	.	.	.	.	.	.	.	8GG/L	.	8GG/L	.	.	.	.	.	.	.	.	.
.	.	.	.	.	.	.	.	.	.	.	.	.	.	.	.	.	.	.	.	.	.	.	8BBn/	.	8BBn/	.	.	.	.	.	.	.	.	.
.	.	.	.	.	.	.	.	.	.	.	.	.	.	.	.	.	.	.	.	.	.	.	8D/J	.	8D/J	.	.	.	.	.	.	.	.	.
!	!	!	!	!	!	!	!	!	!	!	!	!	!	!	!	!	!	!	!	!	!	!	!LO:TX:t=P:problem:mixed beam	!	!LO:TX:t=P:problem:mixed beam	!	!	!	!	!	!	!	!	!
.	.	.	.	.	.	.	.	.	4G\	-gnus	4g\	-gnus	4b\	-gnus	4gg\	-gnus	.	.	.	.	.	.	8G\L	.	8G\L	.	4b\	.	4gg\	.	4bb\	.	4ggg\	.
.	.	.	.	.	.	.	.	.	.	.	.	.	.	.	.	.	.	.	.	.	.	.	8GG/J	.	8GG/J	.	.	.	.	.	.	.	.	.
=50	=50	=50	=50	=50	=50	=50	=50	=50	=50	=50	=50	=50	=50	=50	=50	=50	=50	=50	=50	=50	=50	=50	=50	=50	=50	=50	=50	=50	=50	=50	=50	=50	=50	=50
.	.	.	.	.	.	.	.	.	4c\	De-	4g\	De-	4g\	Dĕ-	4ee-X\	Dĕ-	2.ryy	2.ryy	4c/	.	4cc\	.	4C/	.	4C/	.	4g/	.	4ee-X\	.	4gg\	.	4eee-X\	.
*	*	*	*	*	*	*	*	*	*	*	*	*	*	*	*	*	*	*	*tremolo	*	*tremolo	*	*	*	*	*	*	*	*	*	*	*	*	*
.	.	.	.	.	.	.	.	.	4C/	-i	4g\	-i	4e-\	-i	4cc\	-i	.	.	8c'/L	.	8cc|\L	.	4CC/	.	4CC/	.	4e-X/	.	4cc\	.	4ee-X\	.	4ccc\	.
.	.	.	.	.	.	.	.	.	.	.	.	.	.	.	.	.	.	.	8c'/	.	8cc|\	.	.	.	.	.	.	.	.	.	.	.	.	.
.	.	.	.	.	.	.	.	.	4r	.	4r	.	4r	.	4r	.	.	.	8c'/	.	8cc|\	.	4r	.	4r	.	4r	.	4r	.	4r	.	4r	.
.	.	.	.	.	.	.	.	.	.	.	.	.	.	.	.	.	.	.	8c'/J	.	8cc|\J	.	.	.	.	.	.	.	.	.	.	.	.	.
*	*	*	*	*	*	*	*	*	*	*	*	*	*	*	*	*	*	*	*	*	*Xtremolo	*	*	*	*	*	*	*	*	*	*	*	*	*
*	*	*	*	*	*	*	*	*	*	*	*	*	*	*	*	*	*	*	*Xtremolo	*	*	*	*	*	*	*	*	*	*	*	*	*	*	*
=51	=51	=51	=51	=51	=51	=51	=51	=51	=51	=51	=51	=51	=51	=51	=51	=51	=51	=51	=51	=51	=51	=51	=51	=51	=51	=51	=51	=51	=51	=51	=51	=51	=51	=51
!	!	!	!	!	!	!	!	!	!LO:LB:g=original	!	!	!	!	!	!	!	!	!	!	!	!	!	!	!	!	!	!LO:SIC:v:s=2bn	!	!	!	!	!	!	!
2.r	.	.	2.r	.	2.r	.	2.r	.	4G\	de-	4g\	De-	4bn\	Dĕ-	4dd\	Dĕ-	2.ryy	2.ryy	2.G/	.	2.g/	.	8r	.	8r	.	2b-X\	.	2dd\	.	4bbn\	.	2ddd\	.
.	.	.	.	.	.	.	.	.	.	.	.	.	.	.	.	.	.	.	.	.	.	.	8GG/L	.	8GG/L	.	.	.	.	.	.	.	.	.
.	.	.	.	.	.	.	.	.	4G\	-i	4g\	-i	4b\	-i	4dd\	-i	.	.	.	.	.	.	8BBn/	.	8BBn/	.	.	.	.	.	2bb\	.	.	.
.	.	.	.	.	.	.	.	.	.	.	.	.	.	.	.	.	.	.	.	.	.	.	8D/J	.	8D/J	.	.	.	.	.	.	.	.	.
!	!	!	!	!	!	!	!	!	!	!	!	!	!	!	!	!	!	!	!	!	!	!	!LO:TX:t=P:problem:mixed beam	!	!LO:TX:t=P:problem:mixed beam	!	!LO:SIC:v:s=4bn	!	!	!	!	!	!	!
.	.	.	.	.	.	.	.	.	4G\	qvi	4g\	qui	4b\	qui	4gg\	qui	.	.	.	.	.	.	8G\L	.	8G\L	.	4b-\	.	4gg\	.	.	.	4ggg\	.
.	.	.	.	.	.	.	.	.	.	.	.	.	.	.	.	.	.	.	.	.	.	.	8GG/J	.	8GG/J	.	.	.	.	.	.	.	.	.
=52	=52	=52	=52	=52	=52	=52	=52	=52	=52	=52	=52	=52	=52	=52	=52	=52	=52	=52	=52	=52	=52	=52	=52	=52	=52	=52	=52	=52	=52	=52	=52	=52	=52	=52
!	!	!LO:DY:b:Bi:t=p&colon;:rj	!	!LO:DY:b:Bi:t=p	!	!LO:DY:b:Bi:rj	!	!	!	!	!	!	!	!	!	!	!	!	!	!	!	!	!	!	!	!	!	!	!	!	!	!	!	!
8C/L	3	p	8c\L	p	8G/ 8e-L	p	16r	.	4c\	tol-	4g\	tol-	4g\	tol-	4ee-\	tol-	2.ryy	2.ryy	4c/	.	4cc\	.	4C/	.	4C/	.	4g\	.	4ee-X\	.	4gg\	.	4eee-X\	.
.	.	.	.	.	.	.	16gg|\LL	.	.	.	.	.	.	.	.	.	.	.	.	.	.	.	.	.	.	.	.	.	.	.	.	.	.	.
8C/	.	.	8c\	.	8G/ 8e-	.	(16dd\	.	.	.	.	.	.	.	.	.	.	.	.	.	.	.	.	.	.	.	.	.	.	.	.	.	.	.
.	.	.	.	.	.	.	16ee-\JJ)	.	.	.	.	.	.	.	.	.	.	.	.	.	.	.	.	.	.	.	.	.	.	.	.	.	.	.
8C/	.	.	8c\	.	8G/ 8e-	.	(16bn\LL	.	4C/	-lis	4g\	-lis	4e-\	-lis	4cc\	-lis	.	.	4c/	.	4cc\	.	4CC/	.	4CC/	.	4e-X\	.	4cc\	.	4ee-\	.	4ccc\	.
.	.	.	.	.	.	.	16cc\)	.	.	.	.	.	.	.	.	.	.	.	.	.	.	.	.	.	.	.	.	.	.	.	.	.	.	.
8C/	.	.	8c\	.	8G/ 8e-	.	(16f#X\	.	.	.	.	.	.	.	.	.	.	.	.	.	.	.	.	.	.	.	.	.	.	.	.	.	.	.
.	.	.	.	.	.	.	16g\JJ)	.	.	.	.	.	.	.	.	.	.	.	.	.	.	.	.	.	.	.	.	.	.	.	.	.	.	.
8C/	.	.	8c\	.	8G/ 8e-	.	(16d/LL	.	4r	.	4r	.	4r	.	4r	.	.	.	4r	.	4r	.	4r	.	4r	.	4r	.	4r	.	4r	.	4r	.
.	.	.	.	.	.	.	16e-/)	.	.	.	.	.	.	.	.	.	.	.	.	.	.	.	.	.	.	.	.	.	.	.	.	.	.	.
8C/J	.	.	8c\J	.	8G/ 8e-J	.	(16Bn/	.	.	.	.	.	.	.	.	.	.	.	.	.	.	.	.	.	.	.	.	.	.	.	.	.	.	.
.	.	.	.	.	.	.	16c/JJ)	.	.	.	.	.	.	.	.	.	.	.	.	.	.	.	.	.	.	.	.	.	.	.	.	.	.	.
=53	=53	=53	=53	=53	=53	=53	=53	=53	=53	=53	=53	=53	=53	=53	=53	=53	=53	=53	=53	=53	=53	=53	=53	=53	=53	=53	=53	=53	=53	=53	=53	=53	=53	=53
!	!	!LO:DY:b:Bi:rj	!	!LO:DY:b:Bi:t=f	!	!LO:DY:b:Bi:t=f:rj	!	!	!	!	!	!	!	!	!	!	!	!	!	!LO:DY:b:Bi:t=f.:rj	!	!	!	!LO:DY:b:Bi:t=f	!	!	!	!LO:DY:b:Bi:	!	!LO:DY:b:Bi:t=rf.	!	!LO:DY:b:Bi:t=f	!LO:N:vis=2	!LO:DY:b:Bi:t=f
8C/L	3	f	8c\L	f	8G/ 8e-L	f	16G|/LL	f	2c\	pec-	2c\	mi-	2g\	Mi-	2ee-\	Mi-	2.ryy	2.ryy	2.c/	f	2.cc\	.	2.c\	f	2.e-\	rf	2.cc\	f	2.ee-X\	rf	2.ccc\	f	2.eee-\	f
.	.	.	.	.	.	.	16e-|/	.	.	.	.	.	.	.	.	.	.	.	.	.	.	.	.	.	.	.	.	.	.	.	.	.	.	.
8C/	.	.	8c\	.	8G/ 8e-	.	(16c/	.	.	.	.	.	.	.	.	.	.	.	.	.	.	.	.	.	.	.	.	.	.	.	.	.	.	.
.	.	.	.	.	.	.	16g/JJ)	.	.	.	.	.	.	.	.	.	.	.	.	.	.	.	.	.	.	.	.	.	.	.	.	.	.	.
8C/	.	.	8c\	.	8G/ 8e-	.	(16e-/LL	.	.	.	.	.	.	.	.	.	.	.	.	.	.	.	.	.	.	.	.	.	.	.	.	.	.	.
.	.	.	.	.	.	.	16cc/)	.	.	.	.	.	.	.	.	.	.	.	.	.	.	.	.	.	.	.	.	.	.	.	.	.	.	.
8C/	.	.	8c\	.	8G/ 8e-	.	(16g/	.	.	.	.	.	.	.	.	.	.	.	.	.	.	.	.	.	.	.	.	.	.	.	.	.	.	.
!	!	!	!	!	!	!	!LO:TX:t=P:problem:zbędna 16r	!	!	!	!	!	!	!	!	!	!	!	!	!	!	!	!	!	!	!	!	!	!	!	!	!	!	!
.	.	.	.	.	.	.	16ee-/JJ)	.	.	.	.	.	.	.	.	.	.	.	.	.	.	.	.	.	.	.	.	.	.	.	.	.	.	.
!	!	!	!	!	!	!	!LO:LB:g=original	!	!	!	!	!	!	!	!	!	!	!	!	!	!	!	!	!	!	!	!	!	!	!	!	!	!	!
8C/	.	.	8c\	.	8G/ 8e-	.	16cc\LL	p	4c\	.	4c\	-se-	4g\	-se-	4ee-\	-se-	.	.	.	.	.	.	.	.	.	.	.	.	.	.	.	.	.	.
.	.	.	.	.	.	.	16gg\	.	.	.	.	.	.	.	.	.	.	.	.	.	.	.	.	.	.	.	.	.	.	.	.	.	.	.
8C/J	.	.	8c\J	.	8G/ 8e-J	.	16ee-\	.	.	.	.	.	.	.	.	.	.	.	.	.	.	.	.	.	.	.	.	.	.	.	.	.	.	.
.	.	.	.	.	.	.	16cc\JJ	.	.	.	.	.	.	.	.	.	.	.	.	.	.	.	.	.	.	.	.	.	.	.	.	.	.	.
=54	=54	=54	=54	=54	=54	=54	=54	=54	=54	=54	=54	=54	=54	=54	=54	=54	=54	=54	=54	=54	=54	=54	=54	=54	=54	=54	=54	=54	=54	=54	=54	=54	=54	=54
!	!	!LO:DY:b:Bi:t=p&colon;	!	!LO:DY:b:Bi:t=p	!LO:N:n=2:vis=2	!LO:DY:b:Bi:rj	!	!LO:DY:b:Bi:t=p	!	!	!	!	!	!	!LO:LB:g=original	!	!	!	!LO:LB:g=original	!LO:DY:b:Bi:t=p:rj	!	!	!LO:LB:g=original	!LO:DY:b:Bi:t=p	!LO:LB:g=original	!LO:DY:b:Bi:p	!	!	!	!	!	!LO:DY:b:Bi:t=p	!	!LO:DY:b:Bi:t=p
8BBn/L	5 3	p	8d\L	p	8G/ 8fL	p	16r	p	4Bn\	-ca-	4g\	-re-	4f\	-re-	4dd\	-re-	2.ryy	2.ryy	2G/	p	2g/	.	2Bn\	p	2d\	p	2bn\	p	2dd\	p	2bbn\	p	2ddd\	p
.	.	.	.	.	.	.	16ff|\LL	.	.	.	.	.	.	.	.	.	.	.	.	.	.	.	.	.	.	.	.	.	.	.	.	.	.	.
8BBn/	.	.	8d\	.	8G/ 8f	.	(16cc#X\	.	.	.	.	.	.	.	.	.	.	.	.	.	.	.	.	.	.	.	.	.	.	.	.	.	.	.
.	.	.	.	.	.	.	16dd\JJ)	.	.	.	.	.	.	.	.	.	.	.	.	.	.	.	.	.	.	.	.	.	.	.	.	.	.	.
8BBn/	.	.	8d\	.	8G/ 8f	.	(16a#X/LL	.	4B\	-ta	4g\	-re	4f\	-re	4dd\	-re	.	.	.	.	.	.	.	.	.	.	.	.	.	.	.	.	.	.
.	.	.	.	.	.	.	16bn/)	.	.	.	.	.	.	.	.	.	.	.	.	.	.	.	.	.	.	.	.	.	.	.	.	.	.	.
8BBn/	.	.	8d\	.	8G/ 8f	.	(16f#X/	.	.	.	.	.	.	.	.	.	.	.	.	.	.	.	.	.	.	.	.	.	.	.	.	.	.	.
.	.	.	.	.	.	.	16g/JJ)	.	.	.	.	.	.	.	.	.	.	.	.	.	.	.	.	.	.	.	.	.	.	.	.	.	.	.
8BBn/	.	.	8d\	.	8G/ 8f	.	(16c#X/LL	.	4r	.	4r	.	4r	.	4r	.	.	.	4r	.	4r	.	4r	.	4r	.	4r	.	4r	.	4r	.	4r	.
.	.	.	.	.	.	.	16d/)	.	.	.	.	.	.	.	.	.	.	.	.	.	.	.	.	.	.	.	.	.	.	.	.	.	.	.
!	!	!	!	!	!	!	!LO:SIC:v:s=16A#	!	!	!	!	!	!	!	!	!	!	!	!	!	!	!	!	!	!	!	!	!	!	!	!	!	!	!
8BBn/J	.	.	8d\J	.	8G/ 8fJ	.	(16An/	.	.	.	.	.	.	.	.	.	.	.	.	.	.	.	.	.	.	.	.	.	.	.	.	.	.	.
.	.	.	.	.	.	.	16Bn/JJ)	.	.	.	.	.	.	.	.	.	.	.	.	.	.	.	.	.	.	.	.	.	.	.	.	.	.	.
=55	=55	=55	=55	=55	=55	=55	=55	=55	=55	=55	=55	=55	=55	=55	=55	=55	=55	=55	=55	=55	=55	=55	=55	=55	=55	=55	=55	=55	=55	=55	=55	=55	=55	=55
!LO:SIC:v:2.BBn	!	!LO:DY:b:Bi:t=f.	!	!LO:DY:b:Bi:t=f	!LO:N:n=2:vis=2	!LO:DY:b:Bi:t=f:rj	!	!	!LO:SIC:v:s=2Bn	!	!	!	!	!	!	!	!	!	!	!LO:DY:b:Bi:t=f.:rj	!LO:LB:g=original	!	!	!	!	!	!	!LO:DY:b:Bi:	!LO:LB:g=original	!LO:DY:b:Bi:t=rf.	!	!LO:DY:b:Bi:t=f	!	!LO:DY:b:Bi:t=f
*	*	*	*	*	*	*	*	*	*	*	*	*ij	*	*	*	*	*	*	*	*	*	*	*	*	*	*	*	*	*	*	*	*	*	*
8BB-/L	_ _	f	8d\L	f	8G/ 8fL	f	16G|/LL	f	2B-\	mun-	2g\	mi-	2f\	mi-	2dd\	mi-	2.ryy	2.ryy	2.G/	f	2.g/	.	2.Bn\	rf	2.d\	rf	2.bn\	f	2.dd\	rf	2.bbn\	f	2.ddd\	f
.	.	.	.	.	.	.	16d|/	.	.	.	.	.	.	.	.	.	.	.	.	.	.	.	.	.	.	.	.	.	.	.	.	.	.	.
8BB-/	.	.	8d\	.	8G/ 8f	.	(16Bn/	.	.	.	.	.	.	.	.	.	.	.	.	.	.	.	.	.	.	.	.	.	.	.	.	.	.	.
.	.	.	.	.	.	.	16g/JJ)	.	.	.	.	.	.	.	.	.	.	.	.	.	.	.	.	.	.	.	.	.	.	.	.	.	.	.
8BB-/	.	.	8d\	.	8G/ 8f	.	16d|/LL	.	.	.	.	.	.	.	.	.	.	.	.	.	.	.	.	.	.	.	.	.	.	.	.	.	.	.
.	.	.	.	.	.	.	16bn|/	.	.	.	.	.	.	.	.	.	.	.	.	.	.	.	.	.	.	.	.	.	.	.	.	.	.	.
8BB-/	.	.	8d\	.	8G/ 8f	.	(16g/	.	.	.	.	.	.	.	.	.	.	.	.	.	.	.	.	.	.	.	.	.	.	.	.	.	.	.
.	.	.	.	.	.	.	16dd/JJ)	.	.	.	.	.	.	.	.	.	.	.	.	.	.	.	.	.	.	.	.	.	.	.	.	.	.	.
!	!	!	!	!	!	!	!	!	!LO:SIC:v:s=4Bn	!	!	!	!LO:LB:g=original	!	!	!	!	!	!	!	!	!	!	!	!	!	!	!	!	!	!	!	!	!
8BB-/	.	.	8d\	.	8G/ 8f	.	16b|\LL	.	4B-\	.	4g\	-se-	4f\	-se-	4dd\	-se-	.	.	.	.	.	.	.	.	.	.	.	.	.	.	.	.	.	.
.	.	.	.	.	.	.	16ff|\	.	.	.	.	.	.	.	.	.	.	.	.	.	.	.	.	.	.	.	.	.	.	.	.	.	.	.
8BB-/J	.	.	8d\J	.	8G/ 8fJ	.	(16dd\	.	.	.	.	.	.	.	.	.	.	.	.	.	.	.	.	.	.	.	.	.	.	.	.	.	.	.
.	.	.	.	.	.	.	16b\JJ)	.	.	.	.	.	.	.	.	.	.	.	.	.	.	.	.	.	.	.	.	.	.	.	.	.	.	.
=56	=56	=56	=56	=56	=56	=56	=56	=56	=56	=56	=56	=56	=56	=56	=56	=56	=56	=56	=56	=56	=56	=56	=56	=56	=56	=56	=56	=56	=56	=56	=56	=56	=56	=56
!	!	!LO:DY:b:Bi:t=p&colon;	!	!LO:DY:b:Bi:t=p	!	!LO:DY:b:Bi:rj	!	!	!	!	!	!	!	!	!	!	!	!	!	!LO:DY:b:Bi:t=f:rj	!	!	!	!LO:DY:b:Bi:t=p	!	!LO:DY:b:Bi:p	!	!	!	!	!	!LO:DY:b:Bi:t=p	!	!LO:DY:b:Bi:t=p
8C/L	3	p	8c\L	p	8G/ 8e-L	p	16r	.	4c\	.	4c\	-re-	4g\	-re-	4ee-\	-re-	2.ryy	2.ryy	2c/	f	2cc\	.	2c\	p	2e-\	p	2cc\	p	2ee-\	p	2ccc\	p	2eee-\	p
.	.	.	.	.	.	.	16gg|\LL	.	.	.	.	.	.	.	.	.	.	.	.	.	.	.	.	.	.	.	.	.	.	.	.	.	.	.
8C/	.	.	8c\	.	8G/ 8e-	.	(16dd\	.	.	.	.	.	.	.	.	.	.	.	.	.	.	.	.	.	.	.	.	.	.	.	.	.	.	.
.	.	.	.	.	.	.	16ee-\JJ)	.	.	.	.	.	.	.	.	.	.	.	.	.	.	.	.	.	.	.	.	.	.	.	.	.	.	.
8C/	.	.	8c\	.	8G/ 8e-	.	(16bn/LL	.	4c\	-di	4c\	-re	4g\	-re	4ee-\	-re	.	.	.	.	.	.	.	.	.	.	.	.	.	.	.	.	.	.
*	*	*	*	*	*	*	*	*	*	*	*	*Xij	*	*	*	*	*	*	*	*	*	*	*	*	*	*	*	*	*	*	*	*	*	*
.	.	.	.	.	.	.	16cc/)	.	.	.	.	.	.	.	.	.	.	.	.	.	.	.	.	.	.	.	.	.	.	.	.	.	.	.
8C/	.	.	8c\	.	8G/ 8e-	.	(16f#X/	.	.	.	.	.	.	.	.	.	.	.	.	.	.	.	.	.	.	.	.	.	.	.	.	.	.	.
.	.	.	.	.	.	.	16g/JJ)	.	.	.	.	.	.	.	.	.	.	.	.	.	.	.	.	.	.	.	.	.	.	.	.	.	.	.
8C/	.	.	8c\	.	8G/ 8e-	.	(16d/LL	.	4r	.	4r	.	4r	.	4r	.	.	.	4r	.	4r	.	4r	.	4r	.	4r	.	4r	.	4r	.	4r	.
.	.	.	.	.	.	.	16e-/)	.	.	.	.	.	.	.	.	.	.	.	.	.	.	.	.	.	.	.	.	.	.	.	.	.	.	.
8C/J	.	.	8c\J	.	8G/ 8e-J	.	(16Bn/	.	.	.	.	.	.	.	.	.	.	.	.	.	.	.	.	.	.	.	.	.	.	.	.	.	.	.
.	.	.	.	.	.	.	16c/JJ)	.	.	.	.	.	.	.	.	.	.	.	.	.	.	.	.	.	.	.	.	.	.	.	.	.	.	.
=57	=57	=57	=57	=57	=57	=57	=57	=57	=57	=57	=57	=57	=57	=57	=57	=57	=57	=57	=57	=57	=57	=57	=57	=57	=57	=57	=57	=57	=57	=57	=57	=57	=57	=57
!	!	!LO:DY:b:Bi:t=f.	!	!LO:DY:b:Bi:t=f	!LO:LB:g=original	!LO:DY:b:Bi:t=f.:rj	!	!	!	!	!	!	!	!	!	!	!	!	!	!LO:DY:b:Bi:t=f:rj	!	!	!	!LO:DY:b:Bi:t=f	!	!	!	!LO:DY:b:Bi:	!	!LO:DY:b:Bi:t=rf.	!	!LO:DY:b:Bi:t=f	!	!LO:DY:b:Bi:t=f
8C/L	3	f	8c\L	f	8G/ 8e-L	f	16G/LL	f	2c\	Mi-	2c\	mi-	2g\	Mi-	2ee-\	mi-	2.ryy	2.ryy	2.c/	f	2.cc\	.	2.c\	f	2.e-\	rf	2.cc\	f	2.ee-\	rf	2.ccc\	f	2.eee-\	f
.	.	.	.	.	.	.	16e-/	.	.	.	.	.	.	.	.	.	.	.	.	.	.	.	.	.	.	.	.	.	.	.	.	.	.	.
8C/	.	.	8c\	.	8G/ 8e-	.	16c/	.	.	.	.	.	.	.	.	.	.	.	.	.	.	.	.	.	.	.	.	.	.	.	.	.	.	.
!	!	!	!	!	!	!	!LO:TX:b:t=V.S.	!	!	!	!	!	!	!	!	!	!	!	!	!	!	!	!	!	!	!	!	!	!	!	!	!	!	!
.	.	.	.	.	.	.	16g/JJ	.	.	.	.	.	.	.	.	.	.	.	.	.	.	.	.	.	.	.	.	.	.	.	.	.	.	.
!	!	!	!	!	!	!	!LO:PB:g=original	!	!	!	!	!	!	!	!	!	!	!	!	!	!	!	!	!	!	!	!	!	!	!	!	!	!	!
8C/	.	.	8c\	.	8G/ 8e-	.	16e-|/LL	.	.	.	.	.	.	.	.	.	.	.	.	.	.	.	.	.	.	.	.	.	.	.	.	.	.	.
.	.	.	.	.	.	.	16cc|/	.	.	.	.	.	.	.	.	.	.	.	.	.	.	.	.	.	.	.	.	.	.	.	.	.	.	.
8C/	.	.	8c\	.	8G/ 8e-	.	(16g/	.	.	.	.	.	.	.	.	.	.	.	.	.	.	.	.	.	.	.	.	.	.	.	.	.	.	.
.	.	.	.	.	.	.	16ee-/JJ)	.	.	.	.	.	.	.	.	.	.	.	.	.	.	.	.	.	.	.	.	.	.	.	.	.	.	.
8C/	.	.	8c\	.	8G/ 8e-	.	16cc|\LL	.	4c\	-se-	4c\	-se-	4g\	-se-	4ee-\	-se-	.	.	.	.	.	.	.	.	.	.	.	.	.	.	.	.	.	.
.	.	.	.	.	.	.	16gg|\	.	.	.	.	.	.	.	.	.	.	.	.	.	.	.	.	.	.	.	.	.	.	.	.	.	.	.
8C/J	.	.	8c\J	.	8G/ 8e-J	.	(16ee-\	.	.	.	.	.	.	.	.	.	.	.	.	.	.	.	.	.	.	.	.	.	.	.	.	.	.	.
.	.	.	.	.	.	.	16cc\JJ)	.	.	.	.	.	.	.	.	.	.	.	.	.	.	.	.	.	.	.	.	.	.	.	.	.	.	.
=58	=58	=58	=58	=58	=58	=58	=58	=58	=58	=58	=58	=58	=58	=58	=58	=58	=58	=58	=58	=58	=58	=58	=58	=58	=58	=58	=58	=58	=58	=58	=58	=58	=58	=58
!	!	!	!	!LO:DY:b:Bi:t=p	!	!LO:DY:b:Bi:t=f:rj	!	!	!	!	!LO:LB:g=original	!	!	!	!	!	!	!	!	!	!	!	!	!	!	!LO:DY:b:Bi:f	!LO:LB:g=original	!	!	!	!	!	!	!
8F#X\L	5 n	.	8an\L	p	8c/ 8e-L	f	16r	f	2.F#X\	-re-	2.e-\	-re-	2.an\	-re-	2.cc\	-re-	2.ryy	2.ryy	2.c/	.	2.cc\	.	2.An\	.	2.c\	f	2.cc\	.	2.aan\	.	2.aan\	.	2.ccc\	.
.	.	.	.	.	.	.	16ee-'\LL	.	.	.	.	.	.	.	.	.	.	.	.	.	.	.	.	.	.	.	.	.	.	.	.	.	.	.
8F#X\	.	.	8an\	.	8c/ 8e-	.	(16dd\	.	.	.	.	.	.	.	.	.	.	.	.	.	.	.	.	.	.	.	.	.	.	.	.	.	.	.
.	.	.	.	.	.	.	16cc\JJ)	.	.	.	.	.	.	.	.	.	.	.	.	.	.	.	.	.	.	.	.	.	.	.	.	.	.	.
8F#X\	.	.	8an\	.	8c/ 8e-	.	(16bn\LL	.	.	.	.	.	.	.	.	.	.	.	.	.	.	.	.	.	.	.	.	.	.	.	.	.	.	.
.	.	.	.	.	.	.	16cc\)	.	.	.	.	.	.	.	.	.	.	.	.	.	.	.	.	.	.	.	.	.	.	.	.	.	.	.
8F#X\	.	.	8an\	.	8c/ 8e-	.	(16dd\	.	.	.	.	.	.	.	.	.	.	.	.	.	.	.	.	.	.	.	.	.	.	.	.	.	.	.
.	.	.	.	.	.	.	16cc\JJ)	.	.	.	.	.	.	.	.	.	.	.	.	.	.	.	.	.	.	.	.	.	.	.	.	.	.	.
8F#X\	.	.	8an\	.	8c/ 8e-	.	(16b\LL	.	.	.	.	.	.	.	.	.	.	.	.	.	.	.	.	.	.	.	.	.	.	.	.	.	.	.
.	.	.	.	.	.	.	16cc\)	.	.	.	.	.	.	.	.	.	.	.	.	.	.	.	.	.	.	.	.	.	.	.	.	.	.	.
8F#X\J	.	.	8an\J	.	8c/ 8e-J	.	(16an\	.	.	.	.	.	.	.	.	.	.	.	.	.	.	.	.	.	.	.	.	.	.	.	.	.	.	.
.	.	.	.	.	.	.	16f#X\JJ)	.	.	.	.	.	.	.	.	.	.	.	.	.	.	.	.	.	.	.	.	.	.	.	.	.	.	.
=59	=59	=59	=59	=59	=59	=59	=59	=59	=59	=59	=59	=59	=59	=59	=59	=59	=59	=59	=59	=59	=59	=59	=59	=59	=59	=59	=59	=59	=59	=59	=59	=59	=59	=59
!	!	!	!	!	!LO:N:vis=2	!	!	!	!LO:LB:g=original	!	!	!	!	!	!	!	!	!	!LO:N:vis=2	!	!	!	!	!	!	!	!	!	!	!	!	!	!	!
8G\L	n	.	8g\L	.	8Bn/ 8dL	.	16r	.	2.G\	-re	2.d\	-re	2.g\	-re	2.bn\	-re	2.ryy	2.ryy	2.G/	.	2.g/	.	2.G\	.	2.Bn\	.	2.bn\	.	2.gg\	.	2.gg\	.	2.bbn\	.
.	.	.	.	.	.	.	16g|\LL	.	.	.	.	.	.	.	.	.	.	.	.	.	.	.	.	.	.	.	.	.	.	.	.	.	.	.
8G\	.	.	8g\	.	8Bn/ 8d	.	(16bn\	.	.	.	.	.	.	.	.	.	.	.	.	.	.	.	.	.	.	.	.	.	.	.	.	.	.	.
.	.	.	.	.	.	.	16dd\JJ)	.	.	.	.	.	.	.	.	.	.	.	.	.	.	.	.	.	.	.	.	.	.	.	.	.	.	.
8G\	.	.	8g\	.	8Bn/ 8d	.	(16gg\LL	.	.	.	.	.	.	.	.	.	.	.	.	.	.	.	.	.	.	.	.	.	.	.	.	.	.	.
.	.	.	.	.	.	.	16dd\)	.	.	.	.	.	.	.	.	.	.	.	.	.	.	.	.	.	.	.	.	.	.	.	.	.	.	.
8G\	.	.	8g\	.	8Bn/ 8d	.	(16bbn\	.	.	.	.	.	.	.	.	.	.	.	.	.	.	.	.	.	.	.	.	.	.	.	.	.	.	.
.	.	.	.	.	.	.	16gg\JJ)	.	.	.	.	.	.	.	.	.	.	.	.	.	.	.	.	.	.	.	.	.	.	.	.	.	.	.
8G\	.	.	8g\	.	8Bn/ 8d	.	(16ddd\LL	.	.	.	.	.	.	.	.	.	.	.	.	.	.	.	.	.	.	.	.	.	.	.	.	.	.	.
.	.	.	.	.	.	.	16bbn\)	.	.	.	.	.	.	.	.	.	.	.	.	.	.	.	.	.	.	.	.	.	.	.	.	.	.	.
8G\J	.	.	8g\J	.	8Bn/ 8dJ	.	(16aan\	.	.	.	.	.	.	.	.	.	.	.	.	.	.	.	.	.	.	.	.	.	.	.	.	.	.	.
.	.	.	.	.	.	.	16gg\JJ)	.	.	.	.	.	.	.	.	.	.	.	.	.	.	.	.	.	.	.	.	.	.	.	.	.	.	.
=60	=60	=60	=60	=60	=60	=60	=60	=60	=60	=60	=60	=60	=60	=60	=60	=60	=60	=60	=60	=60	=60	=60	=60	=60	=60	=60	=60	=60	=60	=60	=60	=60	=60	=60
!	!	!	!LO:SIC:v:s=2.an	!	!	!	!	!	!	!	!	!	!	!	!	!	!	!	!	!	!	!	!	!	!	!	!	!	!	!	!	!	!	!
8F#X\L	7 5 n	.	8a-\L	.	8c/ 8e-L	.	16r	.	2.F#X\	no-	2.e-\	no-	2.an\	no-	2.cc\	no-	2.ryy	2.ryy	2.c/	.	2.cc\	.	2.An\	.	2.c\	.	2.cc\	.	2.aan\	.	2.aan\	.	2.ccc\	.
.	.	.	.	.	.	.	16ee-|\LL	.	.	.	.	.	.	.	.	.	.	.	.	.	.	.	.	.	.	.	.	.	.	.	.	.	.	.
8F#X\	.	.	8a-\	.	8c/ 8e-	.	(16dd\	.	.	.	.	.	.	.	.	.	.	.	.	.	.	.	.	.	.	.	.	.	.	.	.	.	.	.
.	.	.	.	.	.	.	16cc\JJ)	.	.	.	.	.	.	.	.	.	.	.	.	.	.	.	.	.	.	.	.	.	.	.	.	.	.	.
8F#X\	.	.	8a-\	.	8c/ 8e-	.	(16bn\LL	.	.	.	.	.	.	.	.	.	.	.	.	.	.	.	.	.	.	.	.	.	.	.	.	.	.	.
.	.	.	.	.	.	.	16cc\)	.	.	.	.	.	.	.	.	.	.	.	.	.	.	.	.	.	.	.	.	.	.	.	.	.	.	.
8F#X\	.	.	8a-\	.	8c/ 8e-	.	(16dd\	.	.	.	.	.	.	.	.	.	.	.	.	.	.	.	.	.	.	.	.	.	.	.	.	.	.	.
.	.	.	.	.	.	.	16cc\JJ)	.	.	.	.	.	.	.	.	.	.	.	.	.	.	.	.	.	.	.	.	.	.	.	.	.	.	.
8F#X\	.	.	8a-\	.	8c/ 8e-	.	(16b\LL	.	.	.	.	.	.	.	.	.	.	.	.	.	.	.	.	.	.	.	.	.	.	.	.	.	.	.
.	.	.	.	.	.	.	16cc\)	.	.	.	.	.	.	.	.	.	.	.	.	.	.	.	.	.	.	.	.	.	.	.	.	.	.	.
8F#X\J	.	.	8a-\J	.	8c/ 8e-J	.	(16an\	.	.	.	.	.	.	.	.	.	.	.	.	.	.	.	.	.	.	.	.	.	.	.	.	.	.	.
.	.	.	.	.	.	.	16f#X\JJ)	.	.	.	.	.	.	.	.	.	.	.	.	.	.	.	.	.	.	.	.	.	.	.	.	.	.	.
*	*	*	*	*	*Xtremolo	*	*	*	*	*	*	*	*	*	*	*	*	*	*	*	*	*	*	*	*	*	*	*	*	*	*	*	*	*
*	*	*	*Xtremolo	*	*	*	*	*	*	*	*	*	*	*	*	*	*	*	*	*	*	*	*	*	*	*	*	*	*	*	*	*	*	*
*Xtremolo	*	*	*	*	*	*	*	*	*	*	*	*	*	*	*	*	*	*	*	*	*	*	*	*	*	*	*	*	*	*	*	*	*	*
=61	=61	=61	=61	=61	=61	=61	=61	=61	=61	=61	=61	=61	=61	=61	=61	=61	=61	=61	=61	=61	=61	=61	=61	=61	=61	=61	=61	=61	=61	=61	=61	=61	=61	=61
!LO:LB:g=original	!	!LO:DY:b:Bi:t=p&colon;	!	!	!	!LO:DY:b:Bi:rj	!LO:LB:g=original	!	!	!	!	!	!	!	!	!	!	!	!	!LO:DY:b:Bi:t=pp:rj	!	!	!	!LO:DY:b:Bi:t=p	!	!	!	!	!	!LO:DY:b:Bi:rj	!	!	!LO:LB:g=original	!
4G\	n	p	4g\	.	4Bn/	p	4g/	.	4G\	-bis.	4d\	-bis.	4g\	-bis.	4bn\	-bis.	2.ryy	2.ryy	4G/	pp	4g/	.	4G\	p	4Bn\	.	4bn\	p	4gg\	p	4gg\	.	4bbn\	.
4GG|>/	.	.	4G/	.	4B/	.	4g/	p	4r	.	4r	.	4r	.	4r	.	.	.	4G/	.	4g/	.	4G\	.	4G\	.	4b\	.	4gg\	.	4gg\	.	4gg\	.
4GG|>/	.	.	4G/	.	4B/	.	4g/	.	4r	.	4r	.	4r	.	4r	.	.	.	4G/	.	4g/	.	4G\	.	4G\	.	4b\	.	4gg\	.	4gg\	.	4gg\	.
=62	=62	=62	=62	=62	=62	=62	=62	=62	=62	=62	=62	=62	=62	=62	=62	=62	=62	=62	=62	=62	=62	=62	=62	=62	=62	=62	=62	=62	=62	=62	=62	=62	=62	=62
!	!	!	!	!	!LO:SIC:v:s=2Bn	!	!	!	!LO:TX:a:t=1.	!	!LO:TX:a:t=1	!	!LO:TX:b:t=1.	!	!LO:TX:a:t=1.	!	!	!	!	!	!	!	!	!	!	!	!LO:SIC:v:s=2bn	!	!	!	!	!	!	!
2GG|>/	.	.	2G/	.	2B-/	.	2g/	.	2.r	.	2.r	.	2.r	.	2.r	.	2.ryy	2.ryy	2G/	.	2g/	.	2G\	.	2G\	.	2b-\	.	2gg\	.	2gg\	.	2gg\	.
!	!	!	!LO:N:vis=2	!	!	!	!	!	!	!	!	!	!	!	!	!	!	!	!	!	!	!	!	!	!	!	!	!	!	!	!	!	!	!
4r	.	.	4r	.	4r	.	4r	.	.	.	.	.	.	.	.	.	.	.	4r	.	4r	.	4r	.	4r	.	4r	.	4r	.	4r	.	4r	.
==	==	==	==	==	==	==	==	==	==	==	==	==	==	==	==	==	==	==	==	==	==	==	==	==	==	==	==	==	==	==	==	==	==	==
*-	*-	*-	*-	*-	*-	*-	*-	*-	*-	*-	*-	*-	*-	*-	*-	*-	*-	*-	*-	*-	*-	*-	*-	*-	*-	*-	*-	*-	*-	*-	*-	*-	*-	*-
!!!system-decoration: [(s1,s2,s3,s4,s5,s6)][(s7,s8,s9)](s10)[(s11,s12,s13,s14)][(s15,s16,s17)](s18)
!!!ENC: Katarzyna Serwa
!!!END: 2020-10-10
!!!ENC:  Krzysztof Stępień
!!!END: 2021-10-26
!!!RDF**kern: | = vertical stroke
!!!RDF**kern: > = above
!!!RDF**kern: < = below
!!!RDF**dynam: f = "f:"
!!!RDF**dynam: p = "p."
